; generated by Slic3r 1.3.0 on 2020-05-28 at 01:35:31

; external perimeters extrusion width = 0.55mm (7.28mm^3/s)
; perimeters extrusion width = 0.70mm (11.44mm^3/s)
; infill extrusion width = 0.63mm (13.45mm^3/s)
; solid infill extrusion width = 0.70mm (3.81mm^3/s)
; top infill extrusion width = 0.70mm (2.86mm^3/s)

M107
M104 S200 ; set temperature
G28 ; home all axes
G1 Z5 F5000 ; lift nozzle

; Filament gcode

M109 S200 ; set temperature and wait for it to be reached
G21 ; set units to millimeters
G90 ; use absolute coordinates
M82 ; use absolute distances for extrusion
G92 E0
G1 Z0.350 F7800.000
G1 E-2.00000 F2400.00000
G92 E0
G1 X34.290 Y86.661 F7800.000
G1 E2.00000 F2400.00000
G1 F1800
G1 X49.551 Y80.579 E2.45634
G1 X50.368 Y80.274 E2.48058
G1 X51.044 Y80.063 E2.50024
G1 X51.811 Y79.869 E2.52222
G1 X52.373 Y79.753 E2.53816
G1 X53.711 Y79.555 E2.57572
G1 X55.058 Y79.449 E2.61325
G1 X56.105 Y79.421 E2.64235
G1 X57.094 Y79.431 E2.66983
G1 X187.637 Y82.160 E6.29682
G1 X189.876 Y82.604 E6.36021
G1 X191.827 Y83.788 E6.42361
G1 X193.255 Y85.569 E6.48701
G1 X194.061 Y88.720 E6.57736
G1 X194.061 Y90.360 E6.62292
G1 X193.664 Y92.607 E6.68631
G1 X192.894 Y94.096 E6.73286
G1 X177.574 Y116.216 E7.48028
G1 X175.968 Y117.837 E7.54368
G1 X173.903 Y118.811 E7.60707
G1 X172.532 Y119.032 E7.64566
G1 X148.360 Y120.321 E8.31806
G1 X89.300 Y120.321 E9.95861
G1 X73.846 Y120.296 E10.38790
G1 X73.098 Y120.267 E10.40869
G1 X72.507 Y120.217 E10.42517
G1 X71.538 Y120.085 E10.45233
G1 X37.298 Y114.100 E11.41785
G1 X36.427 Y113.898 E11.44270
G1 X35.859 Y113.736 E11.45910
G1 X34.987 Y113.430 E11.48478
G1 X34.370 Y113.169 E11.50338
G1 X33.711 Y112.839 E11.52385
G1 X33.076 Y112.462 E11.54436
G1 X32.245 Y111.863 E11.57284
G1 X31.629 Y111.321 E11.59561
G1 X31.075 Y110.740 E11.61792
G1 X30.590 Y110.138 E11.63939
G1 X30.146 Y109.470 E11.66167
G1 X29.660 Y108.528 E11.69112
G1 X29.309 Y107.575 E11.71932
G1 X29.245 Y107.352 E11.72577
G1 X29.036 Y106.352 E11.75416
G1 X27.893 Y98.627 E11.97107
G1 X27.833 Y98.055 E11.98705
G1 X27.790 Y97.327 E12.00729
G1 X27.790 Y96.405 E12.03290
G1 X27.833 Y95.711 E12.05221
G1 X27.912 Y95.025 E12.07140
G1 X28.035 Y94.308 E12.09160
G1 X28.207 Y93.585 E12.11227
G1 X28.434 Y92.850 E12.13364
G1 X28.644 Y92.302 E12.14994
G1 X28.948 Y91.638 E12.17022
G1 X29.310 Y90.971 E12.19130
G1 X29.739 Y90.304 E12.21332
G1 X30.204 Y89.688 E12.23476
G1 X30.744 Y89.080 E12.25735
G1 X31.345 Y88.499 E12.28057
G1 X31.739 Y88.162 E12.29497
G1 X32.377 Y87.686 E12.31709
G1 X33.051 Y87.263 E12.33918
G1 X33.750 Y86.899 E12.36108
G1 X34.221 Y86.691 E12.37539
G1 E10.37539 F2400.00000
G92 E0
G1 X146.734 Y96.394 F7800.000
G1 E2.00000 F2400.00000
G1 F1800
G1 X146.935 Y100.816 E2.12295
G1 X147.006 Y101.315 E2.13696
G1 X147.006 Y112.406 E2.44503
G1 X144.985 Y112.406 E2.50119
G1 X145.272 Y111.954 E2.51608
G1 X145.444 Y111.441 E2.53109
G1 X145.504 Y111.113 E2.54036
G1 X145.534 Y110.643 E2.55345
G1 X145.534 Y95.900 E2.96297
G1 X145.504 Y95.387 E2.97724
G1 X145.390 Y94.845 E2.99263
G1 X145.167 Y94.308 E3.00877
G1 X144.950 Y94.014 E3.01894
G1 X147.600 Y94.014 E3.09256
G1 X147.369 Y94.352 E3.10392
G1 X147.162 Y94.905 E3.12034
G1 X147.051 Y95.645 E3.14110
G1 X147.049 Y96.747 E3.17173
G1 X146.784 Y96.450 E3.18278
G1 X147.366 Y97.946 F7800.000
G1 F1800
G1 X147.495 Y100.764 E3.26113
G1 X147.567 Y101.276 E3.27549
G1 X147.567 Y112.967 E3.60025
G1 X143.209 Y112.967 E3.72130
G1 X143.602 Y112.834 E3.73283
G1 X144.054 Y112.577 E3.74725
G1 X144.453 Y112.196 E3.76258
G1 X144.762 Y111.711 E3.77857
G1 X144.899 Y111.301 E3.79057
G1 X144.946 Y111.044 E3.79782
G1 X144.973 Y110.625 E3.80949
G1 X144.973 Y95.917 E4.21805
G1 X144.946 Y95.462 E4.23071
G1 X144.852 Y95.011 E4.24349
G1 X144.675 Y94.587 E4.25627
G1 X144.339 Y94.131 E4.27199
G1 X143.923 Y93.776 E4.28718
G1 X143.473 Y93.547 E4.30121
G1 X143.133 Y93.453 E4.31101
G1 X149.434 Y93.453 E4.48603
G1 X149.254 Y93.496 E4.49118
G1 X148.812 Y93.677 E4.50445
G1 X148.482 Y93.890 E4.51536
G1 X148.111 Y94.260 E4.52991
G1 X147.871 Y94.612 E4.54175
G1 X147.708 Y95.047 E4.55465
G1 X147.612 Y95.687 E4.57263
G1 X147.607 Y98.216 E4.64288
G1 X147.416 Y98.002 E4.65083
G1 E2.65083 F2400.00000
G92 E0
G1 X153.869 Y105.446 F7800.000
G1 E2.00000 F2400.00000
G1 F1800
G1 X154.294 Y105.857 E2.01640
G1 X154.687 Y106.186 E2.03065
G1 X153.704 Y106.186 E2.05797
G1 X153.739 Y106.133 E2.05973
G1 X153.855 Y105.520 E2.07708
G1 E0.07708 F2400.00000
G92 E0
G1 X151.098 Y101.288 F7800.000
G1 E2.00000 F2400.00000
G1 F1800
G1 X150.264 Y100.353 E2.03481
G1 X153.099 Y95.812 E2.18351
G1 X153.428 Y95.315 E2.20006
G1 X153.557 Y95.143 E2.20604
G1 X153.939 Y94.715 E2.22197
G1 X154.187 Y94.518 E2.23077
G1 X154.443 Y94.369 E2.23900
G1 X154.889 Y94.205 E2.25220
G1 X155.335 Y94.120 E2.26480
G1 X156.199 Y94.074 E2.28886
G1 X155.852 Y94.406 E2.30220
G1 X155.272 Y95.122 E2.32780
G1 X151.140 Y101.226 E2.53256
G1 X151.400 Y101.843 F7800.000
G1 F1800
G1 X153.927 Y104.721 E2.63896
G1 X154.669 Y105.440 E2.66765
G1 X155.044 Y105.753 E2.68124
G1 X155.409 Y106.025 E2.69387
G1 X155.772 Y106.260 E2.70587
G1 X156.133 Y106.461 E2.71734
G1 X156.507 Y106.629 E2.72875
G1 X156.849 Y106.747 E2.73880
G1 X152.251 Y106.747 E2.86651
G1 X152.527 Y106.641 E2.87471
G1 X152.924 Y106.345 E2.88845
G1 X153.209 Y105.917 E2.90275
G1 X153.304 Y105.415 E2.91694
G1 X153.239 Y104.984 E2.92904
G1 X153.135 Y104.672 E2.93819
G1 X152.902 Y104.228 E2.95211
G1 X152.516 Y103.722 E2.96978
G1 X148.602 Y99.332 E3.13317
G1 X149.711 Y100.179 E3.17195
G1 X152.627 Y95.509 E3.32488
G1 X152.969 Y94.992 E3.34208
G1 X153.439 Y94.419 E3.36268
G1 X153.566 Y94.295 E3.36763
G1 X153.870 Y94.053 E3.37840
G1 X154.197 Y93.864 E3.38890
G1 X154.577 Y93.711 E3.40029
G1 X155.252 Y93.565 E3.41946
G1 X156.116 Y93.513 E3.44351
G1 X158.099 Y93.513 E3.49859
G1 X157.452 Y93.813 E3.51840
G1 X156.845 Y94.233 E3.53889
G1 X156.266 Y94.787 E3.56117
G1 X155.723 Y95.456 E3.58511
G1 X151.442 Y101.781 E3.79725
G1 X152.053 Y101.802 F7800.000
G1 F1800
G1 X154.303 Y104.364 E3.87742
G1 X155.016 Y105.055 E3.90077
G1 X155.365 Y105.347 E3.91148
G1 X155.705 Y105.600 E3.92144
G1 X156.038 Y105.816 E3.93078
G1 X156.365 Y105.997 E3.93956
G1 X156.699 Y106.147 E3.94816
G1 X157.037 Y106.264 E3.95659
G1 X157.381 Y106.348 E3.96490
G1 X157.805 Y106.402 E3.97496
G1 X157.805 Y107.265 E3.99526
G1 X151.355 Y107.265 E4.14692
G1 X151.355 Y106.401 E4.16724
G1 X151.533 Y106.392 E4.17143
G1 X151.929 Y106.317 E4.18091
G1 X152.274 Y106.183 E4.18961
G1 X152.542 Y105.983 E4.19748
G1 X152.720 Y105.717 E4.20500
G1 X152.779 Y105.405 E4.21246
G1 X152.733 Y105.106 E4.21959
G1 X152.657 Y104.875 E4.22530
G1 X152.464 Y104.508 E4.23506
G1 X152.116 Y104.052 E4.24854
G1 X147.950 Y99.379 E4.39574
G1 X148.011 Y100.716 E4.42719
G1 X148.085 Y101.239 E4.43963
G1 X148.085 Y113.485 E4.72758
G1 X142.155 Y113.485 E4.86702
G1 X142.155 Y112.569 E4.88857
G1 X142.534 Y112.559 E4.89749
G1 X143.018 Y112.485 E4.90899
G1 X143.389 Y112.359 E4.91821
G1 X143.742 Y112.158 E4.92776
G1 X144.050 Y111.865 E4.93776
G1 X144.291 Y111.486 E4.94832
G1 X144.396 Y111.171 E4.95613
G1 X144.431 Y110.981 E4.96068
G1 X144.455 Y110.609 E4.96945
G1 X144.455 Y95.932 E5.31456
G1 X144.431 Y95.531 E5.32401
G1 X144.355 Y95.165 E5.33279
G1 X144.221 Y94.844 E5.34098
G1 X143.958 Y94.486 E5.35142
G1 X143.634 Y94.210 E5.36143
G1 X143.285 Y94.032 E5.37063
G1 X142.913 Y93.929 E5.37971
G1 X142.425 Y93.872 E5.39127
G1 X142.155 Y93.869 E5.39761
G1 X142.155 Y92.935 E5.41957
G1 X150.445 Y92.935 E5.61450
G1 X150.445 Y93.868 E5.63645
G1 X150.155 Y93.872 E5.64326
G1 X149.672 Y93.929 E5.65470
G1 X149.413 Y93.990 E5.66095
G1 X149.053 Y94.138 E5.67011
G1 X148.809 Y94.296 E5.67693
G1 X148.512 Y94.593 E5.68682
G1 X148.334 Y94.852 E5.69422
G1 X148.212 Y95.178 E5.70239
G1 X148.130 Y95.726 E5.71543
G1 X148.125 Y98.316 E5.77632
G1 X149.573 Y99.422 E5.81918
G1 X152.191 Y95.229 E5.93542
G1 X152.545 Y94.694 E5.95049
G1 X152.715 Y94.467 E5.95715
G1 X153.061 Y94.065 E5.96963
G1 X153.223 Y93.906 E5.97496
G1 X153.577 Y93.624 E5.98562
G1 X153.970 Y93.397 E5.99628
G1 X154.409 Y93.220 E6.00742
G1 X154.639 Y93.155 E6.01303
G1 X155.176 Y93.052 E6.02588
G1 X155.466 Y93.021 E6.03275
G1 X156.106 Y92.995 E6.04780
G1 X158.745 Y92.995 E6.10986
G1 X158.745 Y93.884 E6.13077
G1 X158.502 Y93.931 E6.13658
G1 X158.235 Y94.013 E6.14316
G1 X157.713 Y94.262 E6.15677
G1 X157.174 Y94.635 E6.17218
G1 X156.647 Y95.138 E6.18930
G1 X156.140 Y95.765 E6.20826
G1 X152.095 Y101.740 E6.37791
G1 X151.706 Y102.161 F7800.000
G1 X150.819 Y100.595 F7800.000
G1 F1800
G1 X151.256 Y100.159 E6.39850
G1 X153.251 Y97.211 E6.51714
G1 X152.063 Y98.399 E6.57312
G1 X153.669 Y95.856 E6.67335
G1 X154.779 Y94.731 E6.72603
G1 E4.72603 F2400.00000
G92 E0
G1 X146.104 Y94.357 F7800.000
G1 E2.00000 F2400.00000
G1 F1800
G1 X145.667 Y94.793 E2.01751
G1 X145.710 Y94.896 E2.02069
G1 X145.825 Y95.446 E2.03661
G1 X146.335 Y94.936 E2.05705
G1 X146.370 Y95.712 E2.07907
G1 X145.877 Y96.205 E2.09886
G1 X145.877 Y97.015 E2.12185
G1 X146.405 Y96.487 E2.14305
G1 X146.440 Y97.262 E2.16507
G1 X145.877 Y97.825 E2.18769
G1 X145.877 Y98.636 E2.21068
G1 X146.476 Y98.037 E2.23471
G1 X146.511 Y98.812 E2.25673
G1 X145.877 Y99.446 E2.28218
G1 X145.877 Y100.257 E2.30517
G1 X146.546 Y99.587 E2.33203
G1 X146.581 Y100.363 E2.35405
G1 X145.877 Y101.067 E2.38232
G1 X145.877 Y101.878 E2.40532
G1 X146.658 Y101.097 E2.43666
G1 X146.663 Y101.137 E2.43780
G1 X146.663 Y101.902 E2.45950
G1 X145.877 Y102.688 E2.49107
G1 X145.877 Y103.499 E2.51406
G1 X146.663 Y102.712 E2.54563
G1 X146.663 Y103.522 E2.56862
G1 X145.877 Y104.309 E2.60018
G1 X145.877 Y105.119 E2.62318
G1 X146.663 Y104.333 E2.65474
G1 X146.663 Y105.143 E2.67774
G1 X145.877 Y105.930 E2.70930
G1 X145.877 Y106.740 E2.73230
G1 X146.663 Y105.954 E2.76386
G1 X146.663 Y106.764 E2.78685
G1 X145.877 Y107.551 E2.81842
G1 X145.877 Y108.361 E2.84141
G1 X146.663 Y107.575 E2.87297
G1 X146.663 Y108.385 E2.89597
G1 X145.877 Y109.172 E2.92753
G1 X145.877 Y109.982 E2.95053
G1 X146.663 Y109.195 E2.98209
G1 X146.663 Y110.006 E3.00509
G1 X145.877 Y110.792 E3.03665
G1 X145.844 Y111.400 E3.05392
G1 X145.790 Y111.689 E3.06226
G1 X146.663 Y110.816 E3.09729
G1 X146.663 Y111.627 E3.12028
G1 X146.227 Y112.063 E3.13780
G1 E1.13780 F2400.00000
G92 E0
G1 X146.038 Y95.233 F7800.000
G1 E2.00000 F2400.00000
G1 F1800
G1 X146.905 Y94.357 E2.03498
G1 X146.104 Y94.357 E2.05772
G1 E0.05772 F2400.00000
G92 E0
G1 X137.844 Y94.014 F7800.000
G1 E2.00000 F2400.00000
G1 F1800
G1 X137.623 Y94.422 E2.01288
G1 X137.477 Y94.926 E2.02745
G1 X137.399 Y95.594 E2.04615
G1 X137.386 Y102.513 E2.23833
G1 X137.354 Y103.315 E2.26064
G1 X137.265 Y103.987 E2.27946
G1 X137.126 Y104.553 E2.29566
G1 X136.946 Y105.021 E2.30957
G1 X136.735 Y105.409 E2.32186
G1 X136.497 Y105.727 E2.33288
G1 X136.417 Y105.806 E2.33602
G1 X135.971 Y106.136 E2.35142
G1 X135.577 Y106.321 E2.36350
G1 X135.421 Y106.373 E2.36809
G1 X134.924 Y106.486 E2.38224
G1 X134.432 Y106.538 E2.39597
G1 X133.834 Y106.535 E2.41258
G1 X134.254 Y106.293 E2.42604
G1 X134.702 Y105.900 E2.44259
G1 X135.073 Y105.428 E2.45926
G1 X135.432 Y104.729 E2.48109
G1 X135.612 Y104.175 E2.49728
G1 X135.734 Y103.617 E2.51315
G1 X135.815 Y103.024 E2.52976
G1 X135.871 Y102.116 E2.55505
G1 X135.874 Y94.014 E2.78009
G1 X137.769 Y94.014 E2.83274
G1 X139.320 Y93.502 F7800.000
G1 F1800
G1 X138.989 Y93.644 E2.84272
G1 X138.674 Y93.859 E2.85334
G1 X138.400 Y94.164 E2.86472
G1 X138.145 Y94.636 E2.87961
G1 X138.029 Y95.037 E2.89121
G1 X137.959 Y95.634 E2.90792
G1 X137.947 Y96.089 E2.92057
G1 X137.947 Y102.524 E3.09931
G1 X137.913 Y103.363 E3.12264
G1 X137.818 Y104.091 E3.14303
G1 X137.662 Y104.722 E3.16107
G1 X137.456 Y105.256 E3.17698
G1 X137.209 Y105.713 E3.19142
G1 X136.921 Y106.097 E3.20474
G1 X136.788 Y106.228 E3.20993
G1 X136.407 Y106.528 E3.22340
G1 X136.237 Y106.631 E3.22892
G1 X135.785 Y106.842 E3.24277
G1 X135.572 Y106.914 E3.24901
G1 X135.024 Y107.039 E3.26464
G1 X134.752 Y107.075 E3.27225
G1 X133.949 Y107.105 E3.29458
G1 X133.177 Y107.054 E3.31607
G1 X132.844 Y107.012 E3.32538
G1 X132.559 Y106.949 E3.33351
G1 X132.122 Y106.782 E3.34649
G1 X131.724 Y106.552 E3.35926
G1 X131.334 Y106.229 E3.37332
G1 X131.236 Y106.117 E3.37746
G1 X131.674 Y106.256 E3.39022
G1 X131.999 Y106.303 E3.39935
G1 X132.535 Y106.306 E3.41423
G1 X133.032 Y106.235 E3.42819
G1 X133.500 Y106.081 E3.44186
G1 X133.926 Y105.835 E3.45553
G1 X134.293 Y105.513 E3.46910
G1 X134.599 Y105.124 E3.48283
G1 X134.912 Y104.513 E3.50192
G1 X135.070 Y104.028 E3.51608
G1 X135.181 Y103.519 E3.53056
G1 X135.257 Y102.969 E3.54597
G1 X135.310 Y102.098 E3.57020
G1 X135.313 Y93.453 E3.81035
G1 X139.518 Y93.453 E3.92715
G1 X139.393 Y93.484 E3.93073
G1 E1.93073 F2400.00000
G92 E0
G1 X128.628 Y104.186 F7800.000
G1 E2.00000 F2400.00000
G1 F1800
G1 X128.268 Y106.186 E2.05645
G1 X126.496 Y106.186 E2.10566
G1 X126.573 Y106.078 E2.10934
G1 X126.833 Y105.507 E2.12676
G1 X126.962 Y104.991 E2.14153
G1 X127.014 Y104.291 E2.16104
G1 X127.014 Y96.005 E2.39120
G1 X126.988 Y95.498 E2.40531
G1 X126.899 Y95.005 E2.41922
G1 X126.800 Y94.681 E2.42862
G1 X126.508 Y94.069 E2.44746
G1 X126.462 Y94.014 E2.44946
G1 X129.011 Y94.014 E2.52027
G1 X128.849 Y94.290 E2.52916
G1 X128.677 Y94.727 E2.54220
G1 X128.571 Y95.215 E2.55609
G1 X128.526 Y95.897 E2.57507
G1 X128.539 Y101.844 E2.74025
G1 X128.619 Y102.775 E2.76621
G1 X128.781 Y103.685 E2.79189
G1 X128.942 Y104.186 E2.80651
G1 X128.703 Y104.186 E2.81315
G1 X129.097 Y104.747 F7800.000
G1 F1800
G1 X128.737 Y106.747 E2.86960
G1 X124.645 Y106.747 E2.98325
G1 X124.751 Y106.730 E2.98622
G1 X125.216 Y106.579 E2.99980
G1 X125.569 Y106.388 E3.01094
G1 X125.861 Y106.112 E3.02212
G1 X126.085 Y105.797 E3.03283
G1 X126.301 Y105.321 E3.04735
G1 X126.406 Y104.902 E3.05937
G1 X126.453 Y104.270 E3.07698
G1 X126.453 Y96.020 E3.30614
G1 X126.429 Y95.562 E3.31887
G1 X126.353 Y95.136 E3.33088
G1 X126.276 Y94.885 E3.33819
G1 X126.032 Y94.375 E3.35389
G1 X125.687 Y93.962 E3.36882
G1 X125.485 Y93.801 E3.37601
G1 X125.156 Y93.615 E3.38650
G1 X124.679 Y93.453 E3.40049
G1 X130.785 Y93.453 E3.57008
G1 X130.603 Y93.493 E3.57525
G1 X130.132 Y93.683 E3.58937
G1 X129.800 Y93.920 E3.60069
G1 X129.544 Y94.215 E3.61154
G1 X129.355 Y94.536 E3.62189
G1 X129.216 Y94.890 E3.63246
G1 X129.128 Y95.294 E3.64394
G1 X129.087 Y95.915 E3.66123
G1 X129.100 Y101.819 E3.82523
G1 X129.176 Y102.702 E3.84983
G1 X129.327 Y103.549 E3.87376
G1 X129.572 Y104.314 E3.89607
G1 X129.779 Y104.747 E3.90939
G1 X129.172 Y104.747 E3.92625
G1 X129.530 Y105.265 F7800.000
G1 F1800
G1 X129.170 Y107.265 E3.97403
G1 X123.875 Y107.265 E4.09854
G1 X123.875 Y106.323 E4.12069
G1 X124.078 Y106.314 E4.12547
G1 X124.629 Y106.225 E4.13859
G1 X125.011 Y106.101 E4.14803
G1 X125.263 Y105.965 E4.15476
G1 X125.469 Y105.770 E4.16142
G1 X125.633 Y105.538 E4.16812
G1 X125.810 Y105.150 E4.17814
G1 X125.892 Y104.819 E4.18616
G1 X125.935 Y104.250 E4.19957
G1 X125.935 Y96.033 E4.39280
G1 X125.914 Y95.621 E4.40249
G1 X125.848 Y95.258 E4.41116
G1 X125.792 Y95.073 E4.41571
G1 X125.593 Y94.657 E4.42655
G1 X125.323 Y94.334 E4.43645
G1 X125.194 Y94.231 E4.44032
G1 X124.944 Y94.090 E4.44709
G1 X124.546 Y93.955 E4.45697
G1 X123.961 Y93.881 E4.47083
G1 X123.715 Y93.873 E4.47663
G1 X123.715 Y92.935 E4.49869
G1 X131.665 Y92.935 E4.68562
G1 X131.665 Y93.874 E4.70770
G1 X131.035 Y93.928 E4.72256
G1 X130.757 Y93.989 E4.72927
G1 X130.383 Y94.140 E4.73875
G1 X130.151 Y94.306 E4.74546
G1 X129.966 Y94.519 E4.75208
G1 X129.822 Y94.763 E4.75876
G1 X129.713 Y95.041 E4.76577
G1 X129.642 Y95.366 E4.77360
G1 X129.605 Y95.931 E4.78691
G1 X129.618 Y101.796 E4.92482
G1 X129.690 Y102.634 E4.94459
G1 X129.830 Y103.424 E4.96347
G1 X130.055 Y104.123 E4.98072
G1 X130.256 Y104.544 E4.99170
G1 X130.381 Y104.748 E4.99733
G1 X130.648 Y105.088 E5.00750
G1 X130.813 Y105.248 E5.01290
G1 X131.152 Y105.503 E5.02286
G1 X131.365 Y105.615 E5.02853
G1 X131.790 Y105.749 E5.03900
G1 X132.038 Y105.785 E5.04491
G1 X132.500 Y105.788 E5.05576
G1 X132.913 Y105.729 E5.06558
G1 X133.287 Y105.605 E5.07483
G1 X133.623 Y105.412 E5.08395
G1 X133.915 Y105.155 E5.09310
G1 X134.161 Y104.843 E5.10243
G1 X134.433 Y104.313 E5.11644
G1 X134.570 Y103.892 E5.12685
G1 X134.671 Y103.428 E5.13802
G1 X134.741 Y102.918 E5.15012
G1 X134.792 Y102.082 E5.16981
G1 X134.795 Y92.935 E5.38490
G1 X140.365 Y92.935 E5.51588
G1 X140.365 Y93.874 E5.53796
G1 X139.751 Y93.929 E5.55245
G1 X139.485 Y93.994 E5.55889
G1 X139.240 Y94.100 E5.56517
G1 X139.017 Y94.252 E5.57150
G1 X138.827 Y94.465 E5.57822
G1 X138.627 Y94.833 E5.58808
G1 X138.538 Y95.140 E5.59558
G1 X138.476 Y95.671 E5.60817
G1 X138.465 Y96.096 E5.61817
G1 X138.465 Y102.534 E5.76955
G1 X138.430 Y103.407 E5.79010
G1 X138.327 Y104.187 E5.80859
G1 X138.157 Y104.877 E5.82530
G1 X137.928 Y105.474 E5.84033
G1 X137.646 Y105.993 E5.85423
G1 X137.312 Y106.439 E5.86731
G1 X137.131 Y106.617 E5.87330
G1 X136.703 Y106.954 E5.88610
G1 X136.483 Y107.088 E5.89217
G1 X135.978 Y107.324 E5.90527
G1 X135.713 Y107.413 E5.91185
G1 X135.116 Y107.549 E5.92623
G1 X134.481 Y107.616 E5.94124
G1 X133.935 Y107.623 E5.95408
G1 X133.127 Y107.570 E5.97312
G1 X132.755 Y107.523 E5.98194
G1 X132.409 Y107.446 E5.99028
G1 X131.899 Y107.251 E6.00313
G1 X131.428 Y106.978 E6.01593
G1 X130.972 Y106.602 E6.02982
G1 X130.692 Y106.283 E6.03979
G1 X130.559 Y106.102 E6.04508
G1 X130.056 Y105.265 E6.06805
G1 X129.605 Y105.265 E6.07864
G1 X129.060 Y105.095 F7800.000
G1 E4.07864 F2400.00000
G92 E0
G1 X127.581 Y105.843 F7800.000
G1 E2.00000 F2400.00000
G1 F1800
G1 X128.017 Y105.407 E2.01775
G1 X128.197 Y104.405 E2.04699
G1 X127.298 Y105.305 E2.08357
G1 X127.357 Y104.425 E2.10892
G1 X128.412 Y103.370 E2.15183
G1 X128.288 Y102.673 E2.17218
G1 X127.357 Y103.604 E2.21005
G1 X127.357 Y102.783 E2.23365
G1 X128.220 Y101.920 E2.26873
G1 X128.196 Y101.650 E2.27652
G1 X128.195 Y101.124 E2.29166
G1 X127.357 Y101.962 E2.32575
G1 X127.357 Y101.141 E2.34935
G1 X128.193 Y100.304 E2.38336
G1 X128.192 Y99.485 E2.40691
G1 X127.357 Y100.320 E2.44085
G1 X127.357 Y99.499 E2.46445
G1 X128.190 Y98.666 E2.49832
G1 X128.188 Y97.847 E2.52187
G1 X127.357 Y98.678 E2.55566
G1 X127.357 Y97.857 E2.57926
G1 X128.186 Y97.028 E2.61298
G1 X128.184 Y96.208 E2.63653
G1 X127.357 Y97.036 E2.67017
G1 X127.357 Y96.215 E2.69377
G1 X128.202 Y95.370 E2.72814
G1 X128.232 Y94.919 E2.74113
G1 X128.343 Y94.407 E2.75617
G1 X127.293 Y95.458 E2.79887
G1 X127.227 Y95.091 E2.80958
G1 X127.136 Y94.793 E2.81852
G1 X127.573 Y94.357 E2.83627
G1 E0.83627 F2400.00000
G92 E0
G1 X136.216 Y94.793 F7800.000
G1 E2.00000 F2400.00000
G1 F1800
G1 X136.653 Y94.357 E2.01732
G1 X137.213 Y94.357 E2.03304
G1 X137.134 Y94.677 E2.04229
G1 X136.216 Y95.595 E2.07874
G1 X136.216 Y96.397 E2.10125
G1 X137.056 Y95.557 E2.13460
G1 X137.055 Y96.360 E2.15714
G1 X136.215 Y97.199 E2.19045
G1 X136.215 Y98.001 E2.21296
G1 X137.053 Y97.163 E2.24621
G1 X137.051 Y97.966 E2.26875
G1 X136.215 Y98.803 E2.30196
G1 X136.215 Y99.604 E2.32447
G1 X137.050 Y98.769 E2.35762
G1 X137.048 Y99.572 E2.38016
G1 X136.214 Y100.406 E2.41327
G1 X136.214 Y101.208 E2.43577
G1 X137.047 Y100.375 E2.46883
G1 X137.045 Y101.179 E2.49137
G1 X136.214 Y102.010 E2.52438
G1 X136.184 Y102.842 E2.54774
G1 X137.044 Y101.982 E2.58188
G1 X137.022 Y102.805 E2.60499
G1 X136.096 Y103.731 E2.64173
G1 X135.936 Y104.540 E2.66489
G1 X135.863 Y104.766 E2.67156
G1 X136.921 Y103.708 E2.71356
G1 X136.808 Y104.167 E2.72682
G1 X136.654 Y104.567 E2.73886
G1 X136.480 Y104.888 E2.74910
G1 X136.292 Y105.138 E2.75789
G1 X135.846 Y105.585 E2.77561
G1 E0.77561 F2400.00000
G92 E0
G1 X115.826 Y109.791 F7800.000
G1 E2.00000 F2400.00000
G1 F1800
G1 X115.310 Y109.936 E2.01260
G1 X114.876 Y109.066 E2.03545
G1 X114.259 Y107.913 E2.06619
G1 X113.819 Y107.146 E2.08699
G1 X109.154 Y99.385 E2.29992
G1 X115.695 Y99.385 E2.45373
G1 X115.699 Y107.599 E2.64688
G1 X115.730 Y108.500 E2.66807
G1 X115.820 Y109.716 E2.69674
G1 X115.926 Y110.280 F7800.000
G1 E0.69674 F2400.00000
G92 E0
G1 X108.998 Y100.132 F7800.000
G1 E2.00000 F2400.00000
G1 F1800
G1 X108.493 Y99.291 E2.02726
G1 X108.960 Y100.068 E2.05243
G1 E0.05243 F2400.00000
G92 E0
G1 X116.968 Y110.591 F7800.000
G1 E2.00000 F2400.00000
G1 F1800
G1 X116.807 Y108.442 E2.05986
G1 X116.778 Y107.581 E2.08379
G1 X116.773 Y98.306 E2.34142
G1 X116.734 Y98.306 E2.34251
G1 X116.734 Y96.084 E2.40424
G1 X116.705 Y95.546 E2.41921
G1 X116.593 Y94.968 E2.43555
G1 X116.315 Y94.309 E2.45541
G1 X116.120 Y94.014 E2.46525
G1 X118.673 Y94.014 E2.53617
G1 X118.620 Y94.074 E2.53841
G1 X118.288 Y94.741 E2.55909
G1 X118.144 Y95.311 E2.57542
G1 X118.086 Y96.068 E2.59652
G1 X118.086 Y111.126 E3.01479
G1 X116.322 Y111.126 E3.06378
G1 X116.139 Y110.823 E3.07361
G1 X116.895 Y110.611 E3.09545
G1 X116.374 Y110.175 F7800.000
G1 F1800
G1 X116.247 Y108.472 E3.14287
G1 X116.217 Y107.590 E3.16738
G1 X116.213 Y98.867 E3.40969
G1 X108.493 Y98.867 E3.62412
G1 X108.493 Y98.613 E3.63118
G1 X116.173 Y98.613 E3.84452
G1 X116.173 Y96.099 E3.91436
G1 X116.147 Y95.614 E3.92784
G1 X116.054 Y95.132 E3.94147
G1 X115.819 Y94.576 E3.95825
G1 X115.590 Y94.230 E3.96975
G1 X115.303 Y93.935 E3.98119
G1 X114.850 Y93.641 E3.99620
G1 X114.476 Y93.496 E4.00734
G1 X114.276 Y93.453 E4.01301
G1 X120.557 Y93.453 E4.18749
G1 X120.349 Y93.491 E4.19336
G1 X119.958 Y93.639 E4.20499
G1 X119.481 Y93.945 E4.22072
G1 X119.089 Y94.390 E4.23720
G1 X118.817 Y94.937 E4.25417
G1 X118.700 Y95.402 E4.26748
G1 X118.647 Y96.090 E4.28666
G1 X118.647 Y98.613 E4.35674
G1 X121.547 Y98.613 E4.43730
G1 X121.547 Y98.867 E4.44436
G1 X118.647 Y98.867 E4.52491
G1 X118.647 Y111.687 E4.88102
G1 X116.006 Y111.687 E4.95437
G1 X115.276 Y110.483 E4.99349
G1 X116.302 Y110.195 E5.02308
G1 E3.02308 F2400.00000
G92 E0
G1 X119.165 Y99.385 F7800.000
G1 E2.00000 F2400.00000
G1 F1800
G1 X119.165 Y112.205 E2.30145
G1 X115.715 Y112.205 E2.38258
G1 X107.975 Y99.443 E2.73354
G1 X107.975 Y98.095 E2.76524
G1 X115.655 Y98.095 E2.94583
G1 X115.655 Y96.113 E2.99244
G1 X115.632 Y95.677 E3.00269
G1 X115.556 Y95.284 E3.01212
G1 X115.360 Y94.821 E3.02391
G1 X115.185 Y94.557 E3.03138
G1 X114.973 Y94.338 E3.03855
G1 X114.613 Y94.105 E3.04863
G1 X114.326 Y93.994 E3.05586
G1 X114.024 Y93.928 E3.06313
G1 X113.576 Y93.880 E3.07372
G1 X112.615 Y93.868 E3.09632
G1 X112.615 Y92.935 E3.11827
G1 X121.805 Y92.935 E3.33437
G1 X121.805 Y93.868 E3.35630
G1 X121.406 Y93.872 E3.36570
G1 X120.945 Y93.909 E3.37655
G1 X120.488 Y93.992 E3.38748
G1 X120.192 Y94.104 E3.39493
G1 X119.822 Y94.341 E3.40526
G1 X119.523 Y94.681 E3.41591
G1 X119.306 Y95.118 E3.42738
G1 X119.213 Y95.485 E3.43629
G1 X119.165 Y96.110 E3.45101
G1 X119.165 Y98.095 E3.49769
G1 X122.065 Y98.095 E3.56588
G1 X122.065 Y99.385 E3.59622
G1 X119.240 Y99.385 E3.66265
G1 X118.670 Y99.455 F7800.000
G1 E1.66265 F2400.00000
G92 E0
G1 X117.255 Y94.357 F7800.000
G1 E2.00000 F2400.00000
G1 F1800
G1 X116.818 Y94.793 E2.01776
G1 X116.915 Y95.022 E2.02491
G1 X116.995 Y95.438 E2.03710
G1 X117.933 Y94.500 E2.07527
G1 X117.806 Y95.002 E2.09016
G1 X117.769 Y95.486 E2.10412
G1 X117.071 Y96.184 E2.13253
G1 X117.077 Y97.000 E2.15602
G1 X117.743 Y96.334 E2.18314
G1 X117.743 Y97.155 E2.20678
G1 X117.077 Y97.822 E2.23390
G1 X117.077 Y97.963 E2.23797
G1 X117.116 Y97.963 E2.23910
G1 X117.116 Y98.604 E2.25754
G1 X117.743 Y97.977 E2.28305
G1 X117.743 Y98.799 E2.30670
G1 X117.117 Y99.426 E2.33220
G1 X117.117 Y100.247 E2.35583
G1 X117.743 Y99.621 E2.38132
G1 X117.743 Y100.442 E2.40496
G1 X117.117 Y101.068 E2.43043
G1 X117.118 Y101.890 E2.45406
G1 X117.743 Y101.264 E2.47951
G1 X117.743 Y102.086 E2.50315
G1 X117.118 Y102.711 E2.52859
G1 X117.119 Y103.532 E2.55222
G1 X117.743 Y102.908 E2.57764
G1 X117.743 Y103.729 E2.60128
G1 X117.119 Y104.354 E2.62668
G1 X117.119 Y105.175 E2.65031
G1 X117.743 Y104.551 E2.67570
G1 X117.743 Y105.373 E2.69934
G1 X117.120 Y105.996 E2.72471
G1 X117.120 Y106.818 E2.74834
G1 X117.743 Y106.195 E2.77369
G1 X117.743 Y107.016 E2.79733
G1 X117.121 Y107.639 E2.82267
G1 X117.143 Y108.439 E2.84568
G1 X117.743 Y107.838 E2.87011
G1 X117.743 Y108.660 E2.89375
G1 X117.193 Y109.210 E2.91616
G1 X117.250 Y109.975 E2.93822
G1 X117.743 Y109.482 E2.95830
G1 X117.743 Y110.303 E2.98194
G1 X117.307 Y110.740 E2.99969
G1 E0.99969 F2400.00000
G92 E0
G1 X94.106 Y104.286 F7800.000
G1 E2.00000 F2400.00000
G1 F1800
G1 X94.369 Y106.959 E2.07459
G1 X94.402 Y107.649 E2.09379
G1 X94.405 Y112.406 E2.22594
G1 X92.405 Y112.406 E2.28151
G1 X92.693 Y111.954 E2.29640
G1 X92.864 Y111.441 E2.31141
G1 X92.924 Y111.113 E2.32068
G1 X92.954 Y110.643 E2.33377
G1 X92.954 Y96.005 E2.74038
G1 X92.928 Y95.497 E2.75450
G1 X92.829 Y94.950 E2.76994
G1 X92.578 Y94.308 E2.78909
G1 X92.395 Y94.014 E2.79872
G1 X94.951 Y94.014 E2.86973
G1 X94.786 Y94.294 E2.87875
G1 X94.615 Y94.739 E2.89199
G1 X94.511 Y95.227 E2.90586
G1 X94.466 Y95.896 E2.92450
G1 X94.479 Y101.864 E3.09025
G1 X94.559 Y102.795 E3.11621
G1 X94.721 Y103.705 E3.14189
G1 X94.908 Y104.286 E3.15885
G1 X94.181 Y104.286 E3.17902
G1 X94.725 Y104.847 F7800.000
G1 F1800
G1 X94.929 Y106.918 E3.23682
G1 X94.963 Y107.635 E3.25677
G1 X94.967 Y112.967 E3.40488
G1 X90.629 Y112.967 E3.52536
G1 X91.022 Y112.834 E3.53688
G1 X91.474 Y112.577 E3.55130
G1 X91.873 Y112.196 E3.56664
G1 X92.182 Y111.711 E3.58263
G1 X92.319 Y111.301 E3.59463
G1 X92.366 Y111.044 E3.60187
G1 X92.393 Y110.625 E3.61354
G1 X92.393 Y96.020 E4.01925
G1 X92.369 Y95.562 E4.03198
G1 X92.287 Y95.103 E4.04492
G1 X92.075 Y94.561 E4.06111
G1 X91.852 Y94.205 E4.07276
G1 X91.461 Y93.821 E4.08801
G1 X91.096 Y93.615 E4.09962
G1 X90.619 Y93.453 E4.11361
G1 X96.725 Y93.453 E4.28320
G1 X96.543 Y93.493 E4.28837
G1 X96.072 Y93.683 E4.30249
G1 X95.740 Y93.920 E4.31382
G1 X95.484 Y94.215 E4.32466
G1 X95.293 Y94.538 E4.33509
G1 X95.155 Y94.899 E4.34583
G1 X95.068 Y95.305 E4.35735
G1 X95.027 Y95.914 E4.37432
G1 X95.040 Y101.839 E4.53889
G1 X95.116 Y102.722 E4.56350
G1 X95.267 Y103.569 E4.58742
G1 X95.512 Y104.334 E4.60974
G1 X95.762 Y104.847 E4.62557
G1 X94.800 Y104.847 E4.65228
G1 E2.65228 F2400.00000
G92 E0
G1 X99.784 Y106.536 F7800.000
G1 E2.00000 F2400.00000
G1 F1800
G1 X100.182 Y106.306 E2.01278
G1 X100.630 Y105.929 E2.02903
G1 X100.999 Y105.466 E2.04548
G1 X101.274 Y104.965 E2.06135
G1 X101.481 Y104.428 E2.07734
G1 X101.672 Y103.631 E2.10011
G1 X101.755 Y103.027 E2.11704
G1 X101.811 Y102.130 E2.14201
G1 X101.814 Y94.014 E2.36746
G1 X103.784 Y94.014 E2.42219
G1 X103.563 Y94.422 E2.43507
G1 X103.417 Y94.926 E2.44964
G1 X103.339 Y95.594 E2.46833
G1 X103.317 Y102.939 E2.67235
G1 X103.255 Y103.683 E2.69309
G1 X103.210 Y103.970 E2.70117
G1 X103.065 Y104.556 E2.71794
G1 X102.884 Y105.033 E2.73209
G1 X102.678 Y105.413 E2.74411
G1 X102.452 Y105.709 E2.75445
G1 X102.189 Y105.955 E2.76447
G1 X101.895 Y106.151 E2.77428
G1 X101.547 Y106.308 E2.78489
G1 X101.118 Y106.436 E2.79732
G1 X100.631 Y106.516 E2.81103
G1 X100.067 Y106.545 E2.82672
G1 X99.859 Y106.538 E2.83251
G1 E0.83251 F2400.00000
G92 E0
G1 X97.081 Y106.102 F7800.000
G1 E2.00000 F2400.00000
G1 F1800
G1 X97.614 Y106.276 E2.01557
G1 X97.939 Y106.323 E2.02471
G1 X98.480 Y106.326 E2.03973
G1 X98.987 Y106.247 E2.05398
G1 X99.448 Y106.082 E2.06760
G1 X99.859 Y105.845 E2.08076
G1 X100.226 Y105.536 E2.09408
G1 X100.530 Y105.154 E2.10765
G1 X100.764 Y104.729 E2.12113
G1 X100.944 Y104.261 E2.13505
G1 X101.120 Y103.527 E2.15602
G1 X101.197 Y102.972 E2.17159
G1 X101.250 Y102.113 E2.19550
G1 X101.253 Y93.453 E2.43605
G1 X105.458 Y93.453 E2.55285
G1 X105.260 Y93.502 E2.55851
G1 X104.929 Y93.644 E2.56850
G1 X104.614 Y93.859 E2.57911
G1 X104.340 Y94.164 E2.59050
G1 X104.085 Y94.636 E2.60539
G1 X103.969 Y95.037 E2.61699
G1 X103.899 Y95.634 E2.63370
G1 X103.887 Y96.089 E2.64633
G1 X103.878 Y102.962 E2.83726
G1 X103.812 Y103.750 E2.85921
G1 X103.760 Y104.081 E2.86852
G1 X103.602 Y104.724 E2.88691
G1 X103.396 Y105.267 E2.90305
G1 X103.150 Y105.719 E2.91733
G1 X102.870 Y106.086 E2.93017
G1 X102.539 Y106.397 E2.94278
G1 X102.168 Y106.644 E2.95516
G1 X101.743 Y106.835 E2.96810
G1 X101.244 Y106.984 E2.98256
G1 X100.691 Y107.074 E2.99813
G1 X100.072 Y107.106 E3.01534
G1 X99.295 Y107.081 E3.03693
G1 X98.779 Y107.031 E3.05133
G1 X98.328 Y106.923 E3.06423
G1 X97.909 Y106.752 E3.07679
G1 X97.508 Y106.504 E3.08989
G1 X97.260 Y106.297 E3.09886
G1 X97.129 Y106.159 E3.10414
G1 X95.297 Y105.365 F7800.000
G1 F1800
G1 X95.446 Y106.880 E3.13994
G1 X95.481 Y107.623 E3.15742
G1 X95.485 Y113.485 E3.29527
G1 X89.575 Y113.485 E3.43423
G1 X89.575 Y112.569 E3.45578
G1 X89.954 Y112.559 E3.46470
G1 X90.438 Y112.485 E3.47620
G1 X90.809 Y112.359 E3.48543
G1 X91.162 Y112.158 E3.49498
G1 X91.470 Y111.865 E3.50497
G1 X91.711 Y111.486 E3.51553
G1 X91.816 Y111.171 E3.52334
G1 X91.851 Y110.981 E3.52789
G1 X91.875 Y110.609 E3.53666
G1 X91.875 Y96.033 E3.87940
G1 X91.854 Y95.621 E3.88909
G1 X91.786 Y95.245 E3.89808
G1 X91.610 Y94.794 E3.90946
G1 X91.446 Y94.532 E3.91674
G1 X91.147 Y94.238 E3.92659
G1 X90.884 Y94.090 E3.93369
G1 X90.486 Y93.955 E3.94356
G1 X89.901 Y93.881 E3.95742
G1 X89.655 Y93.873 E3.96322
G1 X89.655 Y92.935 E3.98528
G1 X97.605 Y92.935 E4.17222
G1 X97.605 Y93.874 E4.19430
G1 X96.975 Y93.928 E4.20916
G1 X96.697 Y93.989 E4.21587
G1 X96.323 Y94.140 E4.22535
G1 X96.091 Y94.306 E4.23205
G1 X95.906 Y94.519 E4.23868
G1 X95.761 Y94.764 E4.24538
G1 X95.653 Y95.047 E4.25251
G1 X95.582 Y95.377 E4.26043
G1 X95.545 Y95.931 E4.27350
G1 X95.558 Y101.816 E4.41188
G1 X95.630 Y102.654 E4.43165
G1 X95.770 Y103.444 E4.45053
G1 X95.995 Y104.143 E4.46777
G1 X96.196 Y104.564 E4.47876
G1 X96.321 Y104.768 E4.48438
G1 X96.588 Y105.108 E4.49455
G1 X96.753 Y105.268 E4.49995
G1 X97.092 Y105.523 E4.50992
G1 X97.305 Y105.635 E4.51558
G1 X97.730 Y105.769 E4.52605
G1 X97.978 Y105.805 E4.53196
G1 X98.442 Y105.808 E4.54285
G1 X98.858 Y105.743 E4.55277
G1 X99.230 Y105.610 E4.56206
G1 X99.560 Y105.419 E4.57103
G1 X99.853 Y105.173 E4.58002
G1 X100.098 Y104.866 E4.58925
G1 X100.293 Y104.510 E4.59879
G1 X100.448 Y104.107 E4.60895
G1 X100.611 Y103.431 E4.62530
G1 X100.681 Y102.920 E4.63742
G1 X100.732 Y102.097 E4.65683
G1 X100.735 Y92.935 E4.87225
G1 X106.305 Y92.935 E5.00323
G1 X106.305 Y93.874 E5.02531
G1 X105.691 Y93.929 E5.03980
G1 X105.425 Y93.994 E5.04624
G1 X105.180 Y94.100 E5.05252
G1 X104.957 Y94.252 E5.05885
G1 X104.767 Y94.465 E5.06557
G1 X104.567 Y94.833 E5.07543
G1 X104.478 Y95.140 E5.08293
G1 X104.416 Y95.671 E5.09552
G1 X104.405 Y96.096 E5.10551
G1 X104.396 Y102.984 E5.26748
G1 X104.327 Y103.812 E5.28701
G1 X104.268 Y104.184 E5.29585
G1 X104.097 Y104.878 E5.31267
G1 X103.867 Y105.483 E5.32789
G1 X103.586 Y106.001 E5.34175
G1 X103.255 Y106.435 E5.35458
G1 X102.862 Y106.804 E5.36727
G1 X102.419 Y107.099 E5.37976
G1 X101.924 Y107.322 E5.39254
G1 X101.360 Y107.489 E5.40637
G1 X100.747 Y107.590 E5.42099
G1 X100.077 Y107.625 E5.43675
G1 X99.262 Y107.598 E5.45594
G1 X98.694 Y107.543 E5.46936
G1 X98.169 Y107.417 E5.48206
G1 X97.673 Y107.215 E5.49464
G1 X97.205 Y106.925 E5.50759
G1 X96.907 Y106.678 E5.51669
G1 X96.635 Y106.378 E5.52621
G1 X96.358 Y105.988 E5.53745
G1 X95.999 Y105.365 E5.55437
G1 X95.372 Y105.365 E5.56912
G1 X94.800 Y105.309 F7800.000
G1 E3.56912 F2400.00000
G92 E0
G1 X101.814 Y105.552 F7800.000
G1 E2.00000 F2400.00000
G1 F1800
G1 X102.253 Y105.113 E2.01742
G1 X102.424 Y104.889 E2.02531
G1 X102.591 Y104.580 E2.03517
G1 X102.747 Y104.171 E2.04745
G1 X102.862 Y103.702 E2.06099
G1 X101.814 Y104.750 E2.10255
G1 X102.006 Y103.953 E2.12555
G1 X102.037 Y103.726 E2.13198
G1 X102.966 Y102.797 E2.16883
G1 X102.974 Y102.696 E2.17168
G1 X102.977 Y101.986 E2.19161
G1 X102.124 Y102.838 E2.22542
G1 X102.154 Y102.366 E2.23868
G1 X102.154 Y102.007 E2.24875
G1 X102.979 Y101.182 E2.28149
G1 X102.981 Y100.378 E2.30403
G1 X102.154 Y101.205 E2.33685
G1 X102.154 Y100.404 E2.35934
G1 X102.984 Y99.574 E2.39225
G1 X102.986 Y98.771 E2.41479
G1 X102.155 Y99.602 E2.44779
G1 X102.155 Y98.801 E2.47027
G1 X102.989 Y97.967 E2.50335
G1 X102.991 Y97.163 E2.52590
G1 X102.155 Y97.999 E2.55906
G1 X102.155 Y97.198 E2.58155
G1 X102.993 Y96.360 E2.61479
G1 X102.996 Y95.556 E2.63734
G1 X102.156 Y96.396 E2.67068
G1 X102.156 Y95.595 E2.69316
G1 X103.074 Y94.676 E2.72960
G1 X103.153 Y94.357 E2.73883
G1 X102.593 Y94.357 E2.75455
G1 X102.156 Y94.793 E2.77186
G1 E0.77186 F2400.00000
G92 E0
G1 X93.503 Y94.357 F7800.000
G1 E2.00000 F2400.00000
G1 F1800
G1 X93.067 Y94.793 E2.01804
G1 X93.153 Y95.015 E2.02501
G1 X93.234 Y95.461 E2.03826
G1 X94.283 Y94.412 E2.08165
G1 X94.172 Y94.931 E2.09717
G1 X94.141 Y95.389 E2.11058
G1 X93.297 Y96.233 E2.14549
G1 X93.297 Y97.068 E2.16991
G1 X94.124 Y96.240 E2.20412
G1 X94.126 Y97.074 E2.22848
G1 X93.297 Y97.903 E2.26278
G1 X93.297 Y98.738 E2.28719
G1 X94.128 Y97.907 E2.32156
G1 X94.130 Y98.740 E2.34591
G1 X93.297 Y99.573 E2.38036
G1 X93.297 Y100.408 E2.40477
G1 X94.132 Y99.573 E2.43930
G1 X94.134 Y100.406 E2.46365
G1 X93.297 Y101.243 E2.49826
G1 X93.297 Y102.078 E2.52267
G1 X94.135 Y101.239 E2.55734
G1 X94.136 Y101.670 E2.56994
G1 X94.168 Y102.041 E2.58083
G1 X93.297 Y102.913 E2.61687
G1 X93.297 Y103.748 E2.64128
G1 X94.247 Y102.798 E2.68057
G1 X94.373 Y103.507 E2.70162
G1 X93.936 Y103.943 E2.71966
G1 X93.733 Y103.786 F7800.000
G1 F1800
G1 X93.297 Y104.222 E2.73771
G1 X93.297 Y105.039 E2.76159
G1 X93.806 Y104.530 E2.78266
G1 X93.879 Y105.274 E2.80451
G1 X93.297 Y105.856 E2.82860
G1 X93.297 Y106.673 E2.85248
G1 X93.953 Y106.017 E2.87960
G1 X94.026 Y106.761 E2.90145
G1 X93.297 Y107.490 E2.93159
G1 X93.297 Y108.307 E2.95547
G1 X94.059 Y107.545 E2.98700
G1 X94.060 Y108.361 E3.01087
G1 X93.297 Y109.124 E3.04242
G1 X93.297 Y109.941 E3.06630
G1 X94.060 Y109.177 E3.09788
G1 X94.061 Y109.994 E3.12175
G1 X93.297 Y110.758 E3.15334
G1 X93.264 Y111.400 E3.17214
G1 X93.217 Y111.655 E3.17972
G1 X94.061 Y110.810 E3.21465
G1 X94.062 Y111.627 E3.23851
G1 X93.626 Y112.063 E3.25656
G1 E1.25656 F2400.00000
G92 E0
G1 X83.086 Y109.383 F7800.000
G1 E2.00000 F2400.00000
G1 F1800
G1 X82.847 Y108.795 E2.01762
G1 X82.567 Y108.250 E2.03465
G1 X82.244 Y107.748 E2.05121
G1 X81.889 Y107.315 E2.06677
G1 X81.560 Y106.994 E2.07955
G1 X81.593 Y106.994 E2.08047
G1 X81.602 Y96.386 E2.37513
G1 X81.619 Y96.105 E2.38297
G1 X81.694 Y95.557 E2.39833
G1 X81.806 Y95.133 E2.41051
G1 X81.949 Y94.786 E2.42092
G1 X82.109 Y94.520 E2.42954
G1 X82.291 Y94.310 E2.43728
G1 X82.485 Y94.148 E2.44427
G1 X82.701 Y94.027 E2.45116
G1 X83.011 Y93.918 E2.46030
G1 X83.408 Y93.817 E2.47167
G1 X83.838 Y93.757 E2.48373
G1 X84.462 Y93.740 E2.50108
G1 X84.088 Y94.042 E2.51444
G1 X83.778 Y94.406 E2.52770
G1 X83.542 Y94.797 E2.54039
G1 X83.367 Y95.213 E2.55293
G1 X83.244 Y95.645 E2.56542
G1 X83.165 Y96.092 E2.57803
G1 X83.120 Y96.554 E2.59091
G1 X83.106 Y97.020 E2.60386
G1 X83.106 Y109.436 E2.94875
G1 E0.94875 F2400.00000
G92 E0
G1 X83.667 Y106.747 F7800.000
G1 E2.00000 F2400.00000
G1 F1800
G1 X83.667 Y110.187 E2.09556
G1 X82.755 Y110.187 E2.12088
G1 X82.558 Y109.575 E2.13874
G1 X82.336 Y109.029 E2.15511
G1 X82.081 Y108.530 E2.17068
G1 X81.790 Y108.079 E2.18559
G1 X81.471 Y107.690 E2.19956
G1 X81.061 Y107.303 E2.21523
G1 X80.614 Y106.981 E2.23053
G1 X80.094 Y106.689 E2.24710
G1 X79.775 Y106.550 E2.25676
G1 X79.382 Y106.433 E2.26815
G1 X81.032 Y106.433 E2.31398
G1 X81.041 Y96.369 E2.59354
G1 X81.061 Y96.049 E2.60244
G1 X81.143 Y95.446 E2.61934
G1 X81.273 Y94.953 E2.63350
G1 X81.446 Y94.533 E2.64612
G1 X81.653 Y94.189 E2.65727
G1 X81.897 Y93.908 E2.66762
G1 X82.165 Y93.685 E2.67730
G1 X82.468 Y93.514 E2.68697
G1 X82.849 Y93.380 E2.69819
G1 X83.300 Y93.266 E2.71110
G1 X83.786 Y93.197 E2.72474
G1 X84.326 Y93.174 E2.73976
G1 X85.196 Y93.207 E2.76393
G1 X85.978 Y93.291 E2.78578
G1 X86.487 Y93.368 E2.80009
G1 X87.187 Y93.517 E2.81995
G1 X87.467 Y93.618 E2.82823
G1 X87.467 Y93.907 E2.83625
G1 X86.877 Y93.829 E2.85279
G1 X86.273 Y93.806 E2.86957
G1 X85.877 Y93.828 E2.88058
G1 X85.493 Y93.897 E2.89143
G1 X85.125 Y94.019 E2.90221
G1 X84.782 Y94.203 E2.91302
G1 X84.481 Y94.446 E2.92377
G1 X84.235 Y94.735 E2.93430
G1 X84.043 Y95.052 E2.94458
G1 X83.897 Y95.399 E2.95505
G1 X83.791 Y95.772 E2.96581
G1 X83.721 Y96.168 E2.97700
G1 X83.680 Y96.589 E2.98874
G1 X83.667 Y97.028 E3.00095
G1 X83.667 Y106.433 E3.26219
G1 X87.227 Y106.433 E3.36108
G1 X87.227 Y106.747 E3.36981
G1 X83.742 Y106.747 E3.46661
G1 X84.185 Y107.265 F7800.000
G1 F1800
G1 X84.185 Y110.705 E3.54750
G1 X82.353 Y110.705 E3.59057
G1 X82.252 Y110.310 E3.60015
G1 X82.072 Y109.753 E3.61393
G1 X81.865 Y109.245 E3.62681
G1 X81.632 Y108.789 E3.63886
G1 X81.371 Y108.385 E3.65018
G1 X81.085 Y108.036 E3.66078
G1 X80.738 Y107.709 E3.67199
G1 X80.335 Y107.419 E3.68367
G1 X79.863 Y107.154 E3.69641
G1 X79.597 Y107.037 E3.70323
G1 X79.054 Y106.875 E3.71656
G1 X78.435 Y106.793 E3.73123
G1 X78.435 Y105.915 E3.75189
G1 X80.515 Y105.915 E3.80079
G1 X80.523 Y96.353 E4.02564
G1 X80.545 Y95.998 E4.03399
G1 X80.634 Y95.345 E4.04950
G1 X80.781 Y94.788 E4.06304
G1 X80.982 Y94.300 E4.07545
G1 X81.232 Y93.884 E4.08686
G1 X81.533 Y93.537 E4.09766
G1 X81.870 Y93.256 E4.10797
G1 X82.254 Y93.040 E4.11833
G1 X82.699 Y92.884 E4.12944
G1 X83.200 Y92.757 E4.14157
G1 X83.738 Y92.681 E4.15436
G1 X84.325 Y92.655 E4.16817
G1 X85.233 Y92.690 E4.18954
G1 X86.045 Y92.777 E4.20873
G1 X86.581 Y92.859 E4.22147
G1 X87.329 Y93.018 E4.23946
G1 X87.985 Y93.254 E4.25586
G1 X87.985 Y94.529 E4.28586
G1 X87.198 Y94.384 E4.30469
G1 X86.840 Y94.346 E4.31315
G1 X86.278 Y94.325 E4.32638
G1 X85.937 Y94.343 E4.33439
G1 X85.621 Y94.400 E4.34195
G1 X85.331 Y94.497 E4.34914
G1 X85.069 Y94.637 E4.35612
G1 X84.843 Y94.819 E4.36294
G1 X84.656 Y95.039 E4.36973
G1 X84.506 Y95.287 E4.37655
G1 X84.387 Y95.571 E4.38379
G1 X84.297 Y95.888 E4.39154
G1 X84.234 Y96.239 E4.39992
G1 X84.197 Y96.622 E4.40896
G1 X84.185 Y97.036 E4.41871
G1 X84.185 Y105.915 E4.62749
G1 X87.745 Y105.915 E4.71120
G1 X87.745 Y107.265 E4.74295
G1 X84.260 Y107.265 E4.82489
G1 X83.689 Y107.325 F7800.000
G1 X82.327 Y107.449 F7800.000
G1 F1800
G1 X82.763 Y107.012 E4.84273
G1 X82.763 Y106.187 E4.86657
G1 X81.939 Y107.011 E4.90025
G1 X81.936 Y106.189 E4.92402
G1 X82.763 Y105.362 E4.95780
G1 X82.763 Y104.537 E4.98165
G1 X81.937 Y105.363 E5.01540
G1 X81.938 Y104.537 E5.03927
G1 X82.763 Y103.711 E5.07299
G1 X82.763 Y102.886 E5.09684
G1 X81.939 Y103.711 E5.13054
G1 X81.939 Y102.885 E5.15440
G1 X82.763 Y102.061 E5.18807
G1 X82.763 Y101.236 E5.21191
G1 X81.940 Y102.059 E5.24555
G1 X81.941 Y101.233 E5.26942
G1 X82.763 Y100.410 E5.30303
G1 X82.763 Y99.585 E5.32687
G1 X81.941 Y100.407 E5.36045
G1 X81.942 Y99.581 E5.38432
G1 X82.763 Y98.760 E5.41787
G1 X82.763 Y97.935 E5.44171
G1 X81.943 Y98.755 E5.47524
G1 X81.944 Y97.929 E5.49910
G1 X82.763 Y97.109 E5.53260
G1 X82.781 Y96.266 E5.55697
G1 X81.944 Y97.103 E5.59117
G1 X81.960 Y96.378 E5.61212
G1 X81.978 Y96.244 E5.61603
G1 X82.913 Y95.309 E5.65425
G1 X83.055 Y94.809 E5.66927
G1 X83.289 Y94.273 E5.68616
G1 X83.151 Y94.322 E5.69038
G1 X83.023 Y94.394 E5.69465
G1 X82.468 Y94.929 E5.71690
G1 E3.71690 F2400.00000
G92 E0
G1 X72.933 Y112.291 F7800.000
G1 E2.00000 F2400.00000
G1 F1800
G1 X72.437 Y112.176 E2.01416
G1 X72.044 Y112.031 E2.02579
G1 X71.722 Y111.859 E2.03593
G1 X71.457 Y111.661 E2.04512
G1 X71.239 Y111.435 E2.05384
G1 X71.062 Y111.184 E2.06237
G1 X70.920 Y110.894 E2.07134
G1 X70.811 Y110.553 E2.08129
G1 X70.741 Y110.149 E2.09267
G1 X70.714 Y109.644 E2.10672
G1 X70.714 Y104.860 E2.23962
G1 X70.677 Y104.235 E2.25702
G1 X70.545 Y103.597 E2.27511
G1 X70.321 Y103.049 E2.29155
G1 X70.250 Y102.923 E2.29557
G1 X70.747 Y103.051 E2.30984
G1 X71.107 Y103.173 E2.32039
G1 X71.403 Y103.305 E2.32938
G1 X71.636 Y103.438 E2.33685
G1 X71.811 Y103.569 E2.34291
G1 X71.949 Y103.705 E2.34831
G1 X72.148 Y103.994 E2.35806
G1 X72.220 Y104.164 E2.36316
G1 X72.275 Y104.360 E2.36883
G1 X72.311 Y104.592 E2.37534
G1 X72.326 Y104.893 E2.38373
G1 X72.326 Y109.602 E2.51453
G1 X72.349 Y110.298 E2.53388
G1 X72.462 Y111.183 E2.55867
G1 X72.612 Y111.686 E2.57324
G1 X72.836 Y112.158 E2.58776
G1 X72.889 Y112.231 E2.59025
G1 E0.59025 F2400.00000
G92 E0
G1 X69.266 Y101.805 F7800.000
G1 E2.00000 F2400.00000
G1 F1800
G1 X68.963 Y101.601 E2.01013
G1 X68.743 Y101.486 E2.01705
G1 X69.186 Y101.245 E2.03107
G1 X69.266 Y101.178 E2.03397
G1 X69.266 Y101.730 E2.04931
G1 X70.229 Y100.083 F7800.000
G1 F1800
G1 X70.443 Y99.668 E2.06228
G1 X70.625 Y99.039 E2.08049
G1 X70.707 Y98.383 E2.09885
G1 X70.714 Y93.318 E2.23952
G1 X70.741 Y92.821 E2.25337
G1 X70.804 Y92.470 E2.26327
G1 X70.921 Y92.103 E2.27397
G1 X71.066 Y91.802 E2.28326
G1 X71.246 Y91.542 E2.29203
G1 X71.467 Y91.311 E2.30092
G1 X71.735 Y91.104 E2.31032
G1 X72.060 Y90.925 E2.32062
G1 X72.460 Y90.769 E2.33255
G1 X72.942 Y90.641 E2.34641
G1 X72.828 Y90.800 E2.35184
G1 X72.609 Y91.280 E2.36649
G1 X72.462 Y91.776 E2.38088
G1 X72.349 Y92.645 E2.40520
G1 X72.326 Y93.338 E2.42446
G1 X72.326 Y98.065 E2.55578
G1 X72.311 Y98.366 E2.56416
G1 X72.274 Y98.597 E2.57064
G1 X72.217 Y98.793 E2.57632
G1 X72.049 Y99.124 E2.58663
G1 X71.788 Y99.415 E2.59747
G1 X71.609 Y99.550 E2.60369
G1 X71.375 Y99.687 E2.61125
G1 X71.080 Y99.822 E2.62025
G1 X70.724 Y99.948 E2.63075
G1 X70.301 Y100.063 E2.64292
G1 X69.827 Y100.775 F7800.000
G1 F1800
G1 X69.827 Y102.234 E2.68346
G1 X70.908 Y102.513 E2.71447
G1 X71.311 Y102.650 E2.72630
G1 X71.656 Y102.803 E2.73679
G1 X71.944 Y102.968 E2.74601
G1 X72.177 Y103.142 E2.75408
G1 X72.368 Y103.330 E2.76152
G1 X72.524 Y103.528 E2.76852
G1 X72.650 Y103.742 E2.77541
G1 X72.750 Y103.978 E2.78253
G1 X72.824 Y104.240 E2.79011
G1 X72.870 Y104.534 E2.79838
G1 X72.887 Y104.879 E2.80798
G1 X72.887 Y109.593 E2.93891
G1 X72.909 Y110.253 E2.95726
G1 X73.013 Y111.067 E2.98004
G1 X73.137 Y111.485 E2.99216
G1 X73.320 Y111.870 E3.00399
G1 X73.658 Y112.330 E3.01986
G1 X73.981 Y112.610 E3.03172
G1 X74.343 Y112.821 E3.04337
G1 X74.692 Y112.947 E3.05369
G1 X73.419 Y112.920 E3.08907
G1 X72.810 Y112.841 E3.10613
G1 X72.274 Y112.714 E3.12141
G1 X71.813 Y112.544 E3.13507
G1 X71.419 Y112.333 E3.14747
G1 X71.086 Y112.083 E3.15906
G1 X70.805 Y111.794 E3.17023
G1 X70.578 Y111.471 E3.18123
G1 X70.398 Y111.104 E3.19258
G1 X70.265 Y110.687 E3.20474
G1 X70.182 Y110.213 E3.21811
G1 X70.153 Y109.659 E3.23351
G1 X70.153 Y104.876 E3.36635
G1 X70.119 Y104.308 E3.38216
G1 X70.006 Y103.761 E3.39769
G1 X69.815 Y103.294 E3.41171
G1 X69.676 Y103.047 E3.41957
G1 X69.399 Y102.671 E3.43254
G1 X69.057 Y102.340 E3.44577
G1 X68.676 Y102.084 E3.45852
G1 X68.436 Y101.958 E3.46603
G1 X67.995 Y101.789 E3.47916
G1 X67.519 Y101.678 E3.49274
G1 X66.913 Y101.603 E3.50970
G1 X66.913 Y101.385 E3.51575
G1 X67.309 Y101.341 E3.52681
G1 X67.788 Y101.242 E3.54042
G1 X68.432 Y101.016 E3.55935
G1 X68.869 Y100.779 E3.57317
G1 X69.227 Y100.478 E3.58617
G1 X69.408 Y100.286 E3.59349
G1 X69.684 Y99.917 E3.60630
G1 X69.919 Y99.460 E3.62057
G1 X70.074 Y98.925 E3.63603
G1 X70.146 Y98.348 E3.65220
G1 X70.153 Y93.302 E3.79234
G1 X70.183 Y92.764 E3.80732
G1 X70.261 Y92.326 E3.81967
G1 X70.398 Y91.894 E3.83226
G1 X70.580 Y91.518 E3.84387
G1 X70.810 Y91.186 E3.85507
G1 X71.091 Y90.892 E3.86640
G1 X71.427 Y90.634 E3.87816
G1 X71.821 Y90.416 E3.89067
G1 X72.286 Y90.235 E3.90453
G1 X72.828 Y90.091 E3.92011
G1 X73.440 Y90.002 E3.93729
G1 X73.749 Y89.981 E3.94589
G1 X74.733 Y89.978 E3.97322
G1 X74.343 Y90.119 E3.98473
G1 X73.981 Y90.330 E3.99639
G1 X73.655 Y90.612 E4.00835
G1 X73.315 Y91.083 E4.02449
G1 X73.135 Y91.477 E4.03650
G1 X73.013 Y91.893 E4.04855
G1 X72.909 Y92.690 E4.07090
G1 X72.887 Y93.347 E4.08914
G1 X72.887 Y98.080 E4.22060
G1 X72.869 Y98.425 E4.23021
G1 X72.823 Y98.719 E4.23847
G1 X72.747 Y98.983 E4.24610
G1 X72.643 Y99.222 E4.25335
G1 X72.512 Y99.443 E4.26049
G1 X72.348 Y99.650 E4.26783
G1 X72.156 Y99.840 E4.27532
G1 X71.921 Y100.017 E4.28349
G1 X71.634 Y100.186 E4.29275
G1 X71.291 Y100.342 E4.30322
G1 X70.892 Y100.484 E4.31498
G1 X69.899 Y100.755 E4.34356
G1 X70.345 Y101.170 F7800.000
G1 F1800
G1 X70.345 Y101.833 E4.35915
G1 X71.056 Y102.017 E4.37642
G1 X71.500 Y102.167 E4.38744
G1 X71.891 Y102.341 E4.39749
G1 X72.229 Y102.534 E4.40665
G1 X72.515 Y102.748 E4.41506
G1 X72.755 Y102.984 E4.42296
G1 X72.953 Y103.235 E4.43047
G1 X73.114 Y103.508 E4.43793
G1 X73.240 Y103.806 E4.44554
G1 X73.331 Y104.130 E4.45345
G1 X73.386 Y104.481 E4.46181
G1 X73.405 Y104.867 E4.47089
G1 X73.405 Y109.585 E4.58182
G1 X73.426 Y110.212 E4.59659
G1 X73.521 Y110.959 E4.61430
G1 X73.622 Y111.299 E4.62263
G1 X73.767 Y111.603 E4.63056
G1 X74.041 Y111.977 E4.64145
G1 X74.283 Y112.187 E4.64899
G1 X74.563 Y112.350 E4.65661
G1 X74.891 Y112.468 E4.66480
G1 X75.445 Y112.550 E4.67798
G1 X76.465 Y112.554 E4.70196
G1 X76.465 Y113.465 E4.72338
G1 X74.105 Y113.465 E4.77887
G1 X73.375 Y113.437 E4.79605
G1 X72.716 Y113.351 E4.81167
G1 X72.125 Y113.211 E4.82597
G1 X71.600 Y113.018 E4.83912
G1 X71.140 Y112.771 E4.85138
G1 X70.742 Y112.473 E4.86308
G1 X70.405 Y112.126 E4.87445
G1 X70.130 Y111.735 E4.88568
G1 X69.916 Y111.297 E4.89715
G1 X69.761 Y110.810 E4.90917
G1 X69.667 Y110.271 E4.92204
G1 X69.635 Y109.673 E4.93613
G1 X69.635 Y104.892 E5.04855
G1 X69.604 Y104.377 E5.06068
G1 X69.508 Y103.912 E5.07183
G1 X69.348 Y103.520 E5.08180
G1 X69.240 Y103.329 E5.08695
G1 X69.008 Y103.013 E5.09617
G1 X68.730 Y102.744 E5.10527
G1 X68.410 Y102.529 E5.11433
G1 X68.223 Y102.431 E5.11931
G1 X67.843 Y102.285 E5.12887
G1 X67.428 Y102.189 E5.13888
G1 X66.797 Y102.111 E5.15383
G1 X66.395 Y102.095 E5.16329
G1 X66.395 Y100.907 E5.19123
G1 X67.227 Y100.829 E5.21089
G1 X67.650 Y100.742 E5.22103
G1 X68.221 Y100.541 E5.23527
G1 X68.576 Y100.348 E5.24476
G1 X68.871 Y100.100 E5.25383
G1 X69.011 Y99.952 E5.25862
G1 X69.243 Y99.641 E5.26775
G1 X69.436 Y99.267 E5.27764
G1 X69.565 Y98.821 E5.28857
G1 X69.628 Y98.315 E5.30055
G1 X69.635 Y93.288 E5.41876
G1 X69.667 Y92.712 E5.43233
G1 X69.759 Y92.194 E5.44469
G1 X69.916 Y91.702 E5.45684
G1 X70.131 Y91.257 E5.46847
G1 X70.407 Y90.858 E5.47986
G1 X70.744 Y90.505 E5.49134
G1 X71.142 Y90.200 E5.50314
G1 X71.601 Y89.946 E5.51547
G1 X72.125 Y89.742 E5.52870
G1 X72.724 Y89.583 E5.54327
G1 X73.385 Y89.487 E5.55898
G1 X73.731 Y89.463 E5.56712
G1 X76.465 Y89.456 E5.63141
G1 X76.465 Y90.386 E5.65329
G1 X75.445 Y90.390 E5.67727
G1 X74.891 Y90.472 E5.69045
G1 X74.563 Y90.590 E5.69864
G1 X74.283 Y90.753 E5.70626
G1 X74.040 Y90.964 E5.71383
G1 X73.765 Y91.345 E5.72487
G1 X73.622 Y91.658 E5.73298
G1 X73.521 Y92.000 E5.74135
G1 X73.426 Y92.733 E5.75872
G1 X73.405 Y93.355 E5.77337
G1 X73.405 Y98.093 E5.88477
G1 X73.385 Y98.479 E5.89387
G1 X73.329 Y98.831 E5.90225
G1 X73.236 Y99.157 E5.91022
G1 X73.106 Y99.459 E5.91794
G1 X72.939 Y99.738 E5.92558
G1 X72.735 Y99.996 E5.93333
G1 X72.496 Y100.233 E5.94123
G1 X72.209 Y100.449 E5.94968
G1 X71.873 Y100.646 E5.95884
G1 X71.486 Y100.823 E5.96885
G1 X71.047 Y100.978 E5.97980
G1 X70.417 Y101.150 E5.99514
G1 X69.847 Y101.219 F7800.000
G1 E3.99514 F2400.00000
G92 E0
G1 X71.188 Y99.218 F7800.000
G1 E2.00000 F2400.00000
G1 F1800
G1 X71.800 Y98.586 E2.02633
G1 X71.911 Y98.369 E2.03363
G1 X71.943 Y98.257 E2.03711
G1 X71.970 Y98.089 E2.04217
G1 X71.983 Y97.569 E2.05775
G1 X71.050 Y98.502 E2.09723
G1 X71.051 Y97.647 E2.12282
G1 X71.983 Y96.715 E2.16226
G1 X71.983 Y95.860 E2.18781
G1 X71.052 Y96.791 E2.22719
G1 X71.053 Y95.936 E2.25278
G1 X71.983 Y95.006 E2.29212
G1 X71.983 Y94.152 E2.31767
G1 X71.055 Y95.081 E2.35695
G1 X71.056 Y94.225 E2.38254
G1 X71.983 Y93.298 E2.42177
G1 X72.006 Y92.420 E2.44802
G1 X71.067 Y93.359 E2.48772
G1 X71.082 Y93.104 E2.49537
G1 X71.131 Y92.823 E2.50391
G1 X71.225 Y92.529 E2.51313
G1 X71.334 Y92.303 E2.52064
G1 X71.464 Y92.116 E2.52745
G1 X72.062 Y91.511 E2.55289
G1 E0.55289 F2400.00000
G92 E0
G1 X71.381 Y103.595 F7800.000
G1 E2.00000 F2400.00000
G1 F1800
G1 X70.944 Y104.032 E2.01780
G1 X71.016 Y104.379 E2.02801
G1 X71.039 Y104.761 E2.03904
G1 X71.823 Y103.976 E2.07102
G1 X71.861 Y104.031 E2.07295
G1 X71.947 Y104.278 E2.08049
G1 X71.981 Y104.642 E2.09102
G1 X71.057 Y105.566 E2.12871
G1 X71.057 Y106.390 E2.15245
G1 X71.983 Y105.463 E2.19023
G1 X71.983 Y106.287 E2.21397
G1 X71.057 Y107.213 E2.25175
G1 X71.057 Y108.037 E2.27550
G1 X71.983 Y107.110 E2.31328
G1 X71.983 Y107.934 E2.33702
G1 X71.057 Y108.860 E2.37480
G1 X71.057 Y109.684 E2.39855
G1 X71.983 Y108.757 E2.43633
G1 X71.989 Y109.575 E2.45990
G1 X71.107 Y110.457 E2.49585
G1 X71.139 Y110.637 E2.50114
G1 X71.224 Y110.903 E2.50917
G1 X71.309 Y111.078 E2.51481
G1 X72.036 Y110.351 E2.54444
G1 X72.130 Y111.082 E2.56566
G1 X71.693 Y111.518 E2.58346
G1 E0.58346 F2400.00000
G92 E0
G1 X60.822 Y91.745 F7800.000
G1 E2.00000 F2400.00000
G1 F1800
G1 X60.609 Y91.913 E2.00637
G1 X60.368 Y92.037 E2.01274
G1 X60.105 Y92.132 E2.01934
G1 X59.810 Y92.206 E2.02647
G1 X59.155 Y92.286 E2.04199
G1 X55.534 Y92.295 E2.12714
G1 X54.949 Y92.267 E2.14091
G1 X54.630 Y92.231 E2.14846
G1 X54.320 Y92.150 E2.15600
G1 X54.023 Y92.028 E2.16355
G1 X53.618 Y91.783 E2.17467
G1 X53.369 Y91.559 E2.18255
G1 X53.152 Y91.285 E2.19076
G1 X52.977 Y90.957 E2.19951
G1 X52.865 Y90.571 E2.20897
G1 X52.811 Y90.132 E2.21936
G1 X52.829 Y89.504 E2.23413
G1 X52.906 Y89.127 E2.24319
G1 X53.037 Y88.785 E2.25180
G1 X53.220 Y88.476 E2.26025
G1 X53.457 Y88.204 E2.26873
G1 X53.745 Y87.972 E2.27741
G1 X54.081 Y87.781 E2.28650
G1 X54.454 Y87.629 E2.29599
G1 X54.868 Y87.512 E2.30609
G1 X55.319 Y87.430 E2.31688
G1 X55.770 Y87.383 E2.32754
G1 X56.339 Y87.365 E2.34093
G1 X57.132 Y87.385 E2.35958
G1 X57.853 Y87.447 E2.37660
G1 X58.505 Y87.550 E2.39212
G1 X59.089 Y87.697 E2.40627
G1 X59.604 Y87.889 E2.41919
G1 X60.047 Y88.127 E2.43103
G1 X60.424 Y88.404 E2.44202
G1 X60.737 Y88.729 E2.45263
G1 X60.983 Y89.099 E2.46308
G1 X61.158 Y89.511 E2.47360
G1 X61.262 Y89.958 E2.48440
G1 X61.296 Y90.438 E2.49572
G1 X61.278 Y90.752 E2.50311
G1 X61.225 Y91.040 E2.51000
G1 X61.131 Y91.305 E2.51659
G1 X60.997 Y91.541 E2.52297
G1 X60.871 Y91.688 E2.52755
G1 X60.822 Y91.745 F7800.000
G1 E0.52755 F2400.00000
G92 E0
G1 X54.902 Y93.872 F7800.000
G1 E2.00000 F2400.00000
G1 F1800
G1 X54.814 Y93.338 E2.01505
G1 X55.510 Y93.374 E2.03440
G1 X59.222 Y93.365 E2.13752
G1 X60.007 Y93.269 E2.15949
G1 X60.420 Y93.166 E2.17132
G1 X60.801 Y93.027 E2.18258
G1 X61.194 Y92.825 E2.19485
G1 X61.573 Y92.528 E2.20822
G1 X61.885 Y92.163 E2.22156
G1 X62.117 Y91.754 E2.23462
G1 X62.270 Y91.319 E2.24743
G1 X62.351 Y90.881 E2.25981
G1 X62.377 Y90.431 E2.27232
G1 X62.332 Y89.798 E2.28995
G1 X62.188 Y89.175 E2.30771
G1 X62.102 Y88.972 E2.31384
G1 X62.386 Y89.303 E2.32595
G1 X62.522 Y89.510 E2.33283
G1 X62.752 Y89.982 E2.34741
G1 X62.841 Y90.240 E2.35499
G1 X62.962 Y90.804 E2.37101
G1 X63.005 Y91.425 E2.38830
G1 X62.977 Y91.921 E2.40211
G1 X62.898 Y92.355 E2.41437
G1 X62.712 Y92.846 E2.42895
G1 X62.538 Y93.133 E2.43828
G1 X62.325 Y93.378 E2.44728
G1 X62.052 Y93.601 E2.45709
G1 X61.700 Y93.811 E2.46847
G1 X61.263 Y93.998 E2.48167
G1 X60.744 Y94.152 E2.49672
G1 X60.132 Y94.261 E2.51396
G1 X59.413 Y94.318 E2.53400
G1 X55.574 Y94.326 E2.64064
G1 X54.880 Y94.392 E2.66001
G1 X54.530 Y94.483 E2.67006
G1 X53.977 Y94.715 E2.68672
G1 X53.422 Y95.195 E2.70711
G1 X53.073 Y95.855 E2.72785
G1 X53.050 Y96.017 E2.73237
G1 X52.972 Y95.891 E2.73647
G1 X52.898 Y95.713 E2.74185
G1 X52.882 Y95.443 E2.74935
G1 X52.923 Y95.245 E2.75497
G1 X52.972 Y95.131 E2.75841
G1 X53.151 Y94.887 E2.76682
G1 X53.306 Y94.742 E2.77272
G1 X53.612 Y94.535 E2.78299
G1 X54.835 Y93.907 E2.82117
G1 E0.82117 F2400.00000
G92 E0
G1 X51.953 Y91.299 F7800.000
G1 E2.00000 F2400.00000
G1 F1800
G1 X51.628 Y91.095 E2.01065
G1 X51.490 Y90.960 E2.01602
G1 X51.379 Y90.811 E2.02117
G1 X51.291 Y90.641 E2.02649
G1 X51.222 Y90.433 E2.03258
G1 X51.174 Y90.173 E2.03993
G1 X51.157 Y89.870 E2.04835
G1 X51.186 Y89.461 E2.05975
G1 X51.266 Y89.130 E2.06921
G1 X51.389 Y88.850 E2.07769
G1 X51.559 Y88.602 E2.08606
G1 X51.794 Y88.365 E2.09532
G1 X52.193 Y88.092 E2.10875
G1 X52.062 Y88.313 E2.11588
G1 X51.867 Y88.824 E2.13109
G1 X51.753 Y89.379 E2.14682
G1 X51.730 Y90.183 E2.16915
G1 X51.805 Y90.788 E2.18610
G1 X51.932 Y91.227 E2.19878
G1 E0.19878 F2400.00000
G92 E0
G1 X54.282 Y93.560 F7800.000
G1 E2.00000 F2400.00000
G1 F1800
G1 X54.130 Y92.632 E2.02611
G1 X54.535 Y92.742 E2.03777
G1 X54.907 Y92.784 E2.04818
G1 X55.522 Y92.813 E2.06528
G1 X59.187 Y92.804 E2.16709
G1 X59.905 Y92.716 E2.18717
G1 X60.256 Y92.628 E2.19723
G1 X60.576 Y92.512 E2.20668
G1 X60.890 Y92.351 E2.21649
G1 X61.183 Y92.121 E2.22682
G1 X61.423 Y91.839 E2.23711
G1 X61.604 Y91.520 E2.24730
G1 X61.727 Y91.174 E2.25750
G1 X61.793 Y90.814 E2.26767
G1 X61.815 Y90.435 E2.27822
G1 X61.776 Y89.881 E2.29363
G1 X61.653 Y89.349 E2.30879
G1 X61.441 Y88.852 E2.32382
G1 X61.142 Y88.403 E2.33879
G1 X60.766 Y88.013 E2.35384
G1 X60.325 Y87.688 E2.36907
G1 X59.817 Y87.416 E2.38506
G1 X59.243 Y87.202 E2.40210
G1 X58.609 Y87.042 E2.42025
G1 X57.916 Y86.932 E2.43974
G1 X57.161 Y86.868 E2.46079
G1 X56.338 Y86.847 E2.48366
G1 X55.735 Y86.866 E2.50041
G1 X55.246 Y86.916 E2.51408
G1 X54.751 Y87.007 E2.52806
G1 X54.286 Y87.138 E2.54148
G1 X53.854 Y87.314 E2.55444
G1 X53.452 Y87.543 E2.56728
G1 X53.097 Y87.830 E2.57996
G1 X52.799 Y88.171 E2.59253
G1 X52.569 Y88.558 E2.60506
G1 X52.407 Y88.982 E2.61765
G1 X52.312 Y89.444 E2.63076
G1 X52.292 Y90.156 E2.65055
G1 X52.356 Y90.675 E2.66507
G1 X52.494 Y91.153 E2.67890
G1 X52.717 Y91.570 E2.69204
G1 X52.990 Y91.915 E2.70426
G1 X53.308 Y92.201 E2.71613
G1 X53.382 Y92.245 E2.71850
G1 X53.073 Y92.211 E2.72712
G1 X52.602 Y92.123 E2.74044
G1 X52.186 Y92.007 E2.75243
G1 X51.826 Y91.867 E2.76316
G1 X51.519 Y91.704 E2.77281
G1 X51.268 Y91.528 E2.78132
G1 X51.066 Y91.331 E2.78918
G1 X50.902 Y91.109 E2.79683
G1 X50.773 Y90.860 E2.80462
G1 X50.677 Y90.573 E2.81303
G1 X50.616 Y90.240 E2.82245
G1 X50.595 Y89.866 E2.83284
G1 X50.630 Y89.374 E2.84654
G1 X50.732 Y88.950 E2.85866
G1 X50.896 Y88.577 E2.86998
G1 X51.125 Y88.243 E2.88122
G1 X51.428 Y87.937 E2.89319
G1 X51.819 Y87.656 E2.90656
G1 X52.304 Y87.399 E2.92182
G1 X52.889 Y87.182 E2.93914
G1 X53.581 Y87.007 E2.95896
G1 X54.378 Y86.878 E2.98139
G1 X55.278 Y86.800 E3.00648
G1 X56.290 Y86.773 E3.03460
G1 X57.547 Y86.814 E3.06955
G1 X58.686 Y86.935 E3.10137
G1 X59.189 Y87.022 E3.11555
G1 X59.658 Y87.127 E3.12889
G1 X60.555 Y87.399 E3.15494
G1 X61.297 Y87.717 E3.17735
G1 X61.626 Y87.897 E3.18777
G1 X61.925 Y88.090 E3.19766
G1 X62.195 Y88.295 E3.20707
G1 X62.437 Y88.510 E3.21607
G1 X62.651 Y88.736 E3.22470
G1 X62.840 Y88.973 E3.23314
G1 X63.004 Y89.222 E3.24142
G1 X63.274 Y89.777 E3.25856
G1 X63.378 Y90.078 E3.26740
G1 X63.459 Y90.393 E3.27645
G1 X63.554 Y91.075 E3.29558
G1 X63.566 Y91.431 E3.30546
G1 X63.535 Y91.987 E3.32093
G1 X63.445 Y92.485 E3.33498
G1 X63.389 Y92.677 E3.34054
G1 X63.214 Y93.100 E3.35326
G1 X62.992 Y93.465 E3.36513
G1 X62.717 Y93.782 E3.37678
G1 X62.375 Y94.062 E3.38907
G1 X61.955 Y94.312 E3.40265
G1 X61.454 Y94.526 E3.41778
G1 X60.873 Y94.699 E3.43461
G1 X60.204 Y94.818 E3.45349
G1 X59.436 Y94.879 E3.47488
G1 X55.601 Y94.887 E3.58140
G1 X54.977 Y94.947 E3.59882
G1 X54.710 Y95.016 E3.60649
G1 X54.277 Y95.198 E3.61955
G1 X53.869 Y95.551 E3.63453
G1 X53.615 Y96.031 E3.64963
G1 X53.543 Y96.531 E3.66366
G1 X53.565 Y96.844 E3.67238
G1 X53.655 Y97.199 E3.68255
G1 X53.720 Y97.352 E3.68715
G1 X53.442 Y97.174 E3.69632
G1 X53.087 Y96.892 E3.70889
G1 X52.785 Y96.602 E3.72055
G1 X52.649 Y96.435 E3.72650
G1 X52.472 Y96.148 E3.73588
G1 X52.360 Y95.881 E3.74394
G1 X52.330 Y95.741 E3.74790
G1 X52.320 Y95.416 E3.75695
G1 X52.344 Y95.231 E3.76212
G1 X52.394 Y95.056 E3.76716
G1 X52.552 Y94.734 E3.77714
G1 X52.740 Y94.503 E3.78543
G1 X52.956 Y94.302 E3.79361
G1 X53.326 Y94.051 E3.80602
G1 X54.215 Y93.594 E3.83380
G1 E1.83380 F2400.00000
G92 E0
G1 X55.942 Y98.894 F7800.000
G1 E2.00000 F2400.00000
G1 F1800
G1 X56.201 Y98.818 E2.00747
G1 X56.658 Y98.751 E2.02030
G1 X57.330 Y98.774 E2.03898
G1 X57.768 Y98.880 E2.05151
G1 X58.018 Y98.978 E2.05896
G1 X58.390 Y99.198 E2.07098
G1 X58.700 Y99.481 E2.08264
G1 X58.862 Y99.676 E2.08966
G1 X59.079 Y100.023 E2.10104
G1 X59.190 Y100.265 E2.10842
G1 X59.385 Y100.875 E2.12622
G1 X59.525 Y101.771 E2.15141
G1 X59.570 Y102.522 E2.17232
G1 X59.547 Y103.574 E2.20154
G1 X59.463 Y104.310 E2.22213
G1 X59.311 Y105.000 E2.24175
G1 X59.075 Y105.610 E2.25992
G1 X58.850 Y105.984 E2.27204
G1 X58.703 Y106.171 E2.27864
G1 X58.540 Y106.346 E2.28530
G1 X58.206 Y106.620 E2.29730
G1 X57.820 Y106.832 E2.30951
G1 X57.549 Y106.925 E2.31748
G1 X57.106 Y107.003 E2.32999
G1 X56.839 Y107.014 E2.33739
G1 X56.578 Y107.003 E2.34466
G1 X56.120 Y106.920 E2.35759
G1 X55.683 Y106.739 E2.37072
G1 X55.323 Y106.490 E2.38289
G1 X55.130 Y106.313 E2.39016
G1 X54.862 Y105.992 E2.40179
G1 X54.717 Y105.763 E2.40931
G1 X54.457 Y105.177 E2.42711
G1 X54.277 Y104.500 E2.44659
G1 X54.185 Y103.768 E2.46706
G1 X54.149 Y103.004 E2.48831
G1 X54.158 Y102.229 E2.50983
G1 X54.195 Y101.740 E2.52347
G1 X54.260 Y101.272 E2.53658
G1 X54.414 Y100.634 E2.55481
G1 X54.662 Y100.032 E2.57292
G1 X55.041 Y99.506 E2.59092
G1 X55.525 Y99.088 E2.60869
G1 X55.874 Y98.925 E2.61939
G1 X56.125 Y99.380 F7800.000
G1 F1800
G1 X56.311 Y99.326 E2.62395
G1 X56.687 Y99.270 E2.63287
G1 X57.259 Y99.290 E2.64635
G1 X57.612 Y99.375 E2.65487
G1 X57.790 Y99.445 E2.65937
G1 X58.080 Y99.617 E2.66731
G1 X58.324 Y99.840 E2.67508
G1 X58.441 Y99.980 E2.67938
G1 X58.623 Y100.269 E2.68739
G1 X58.706 Y100.452 E2.69211
G1 X58.879 Y100.994 E2.70551
G1 X59.010 Y101.826 E2.72531
G1 X59.052 Y102.532 E2.74193
G1 X59.030 Y103.539 E2.76561
G1 X58.952 Y104.225 E2.78186
G1 X58.814 Y104.850 E2.79690
G1 X58.608 Y105.381 E2.81030
G1 X58.423 Y105.689 E2.81875
G1 X58.309 Y105.834 E2.82308
G1 X58.185 Y105.968 E2.82738
G1 X57.915 Y106.189 E2.83558
G1 X57.610 Y106.356 E2.84376
G1 X57.419 Y106.422 E2.84850
G1 X57.050 Y106.487 E2.85731
G1 X56.635 Y106.487 E2.86708
G1 X56.267 Y106.420 E2.87587
G1 X55.933 Y106.282 E2.88438
G1 X55.646 Y106.084 E2.89257
G1 X55.505 Y105.954 E2.89707
G1 X55.281 Y105.686 E2.90528
G1 X55.175 Y105.518 E2.90996
G1 X54.947 Y105.005 E2.92317
G1 X54.786 Y104.401 E2.93787
G1 X54.702 Y103.724 E2.95391
G1 X54.667 Y102.995 E2.97107
G1 X54.676 Y102.252 E2.98853
G1 X54.710 Y101.795 E2.99932
G1 X54.769 Y101.369 E3.00943
G1 X54.908 Y100.795 E3.02331
G1 X55.118 Y100.285 E3.03627
G1 X55.426 Y99.858 E3.04865
G1 X55.809 Y99.527 E3.06057
G1 X56.057 Y99.411 E3.06700
G1 X56.125 Y99.380 F7800.000
G1 X54.121 Y99.872 F7800.000
G1 F1800
G1 X53.878 Y100.461 E3.08469
G1 X53.708 Y101.168 E3.10490
G1 X53.637 Y101.680 E3.11926
G1 X53.598 Y102.205 E3.13388
G1 X53.588 Y103.014 E3.15636
G1 X53.626 Y103.817 E3.17867
G1 X53.725 Y104.607 E3.20080
G1 X53.926 Y105.364 E3.22257
G1 X54.220 Y106.026 E3.24268
G1 X53.839 Y105.811 E3.25483
G1 X53.494 Y105.534 E3.26712
G1 X53.210 Y105.217 E3.27894
G1 X52.973 Y104.852 E3.29104
G1 X52.782 Y104.432 E3.30385
G1 X52.639 Y103.944 E3.31798
G1 X52.548 Y103.380 E3.33384
G1 X52.515 Y102.734 E3.35182
G1 X52.532 Y102.314 E3.36348
G1 X52.582 Y101.936 E3.37409
G1 X52.663 Y101.594 E3.38383
G1 X52.840 Y101.151 E3.39708
G1 X52.993 Y100.874 E3.40588
G1 X53.161 Y100.627 E3.41418
G1 X53.339 Y100.418 E3.42182
G1 X53.537 Y100.235 E3.42929
G1 X53.772 Y100.061 E3.43742
G1 X54.053 Y99.901 E3.44638
G1 E1.44638 F2400.00000
G92 E0
G1 X59.598 Y99.808 F7800.000
G1 E2.00000 F2400.00000
G1 F1800
G1 X59.981 Y100.025 E2.01224
G1 X60.274 Y100.253 E2.02254
G1 X60.562 Y100.574 E2.03451
G1 X60.792 Y100.923 E2.04614
G1 X60.985 Y101.332 E2.05870
G1 X61.107 Y101.724 E2.07009
G1 X61.195 Y102.220 E2.08410
G1 X61.225 Y102.752 E2.09891
G1 X61.189 Y103.207 E2.11156
G1 X61.106 Y103.607 E2.12292
G1 X60.924 Y104.189 E2.13987
G1 X60.764 Y104.527 E2.15025
G1 X60.581 Y104.859 E2.16078
G1 X60.392 Y105.145 E2.17031
G1 X60.013 Y105.623 E2.18726
G1 X59.585 Y105.845 E2.20062
G1 X59.850 Y105.163 E2.22094
G1 X60.017 Y104.403 E2.24256
G1 X60.107 Y103.612 E2.26467
G1 X60.132 Y102.511 E2.29524
G1 X60.084 Y101.710 E2.31754
G1 X59.932 Y100.745 E2.34467
G1 X59.714 Y100.062 E2.36460
G1 X59.629 Y99.876 E2.37028
G1 X59.875 Y99.320 F7800.000
G1 F1800
G1 X60.284 Y99.552 E2.38335
G1 X60.488 Y99.699 E2.39033
G1 X60.666 Y99.850 E2.39680
G1 X61.007 Y100.230 E2.41099
G1 X61.283 Y100.647 E2.42489
G1 X61.505 Y101.120 E2.43939
G1 X61.655 Y101.599 E2.45334
G1 X61.753 Y102.156 E2.46903
G1 X61.786 Y102.747 E2.48549
G1 X61.744 Y103.297 E2.50080
G1 X61.581 Y104.004 E2.52096
G1 X61.444 Y104.401 E2.53262
G1 X61.264 Y104.783 E2.54436
G1 X61.061 Y105.149 E2.55599
G1 X60.847 Y105.475 E2.56681
G1 X60.377 Y106.066 E2.58779
G1 X59.495 Y106.523 E2.61538
G1 X58.821 Y106.785 E2.63548
G1 X58.072 Y106.983 E2.65699
G1 X57.526 Y107.061 E2.67231
G1 X56.958 Y107.086 E2.68811
G1 X56.077 Y107.051 E2.71259
G1 X55.293 Y106.948 E2.73457
G1 X54.606 Y106.781 E2.75419
G1 X54.018 Y106.556 E2.77168
G1 X53.523 Y106.277 E2.78747
G1 X53.107 Y105.943 E2.80230
G1 X52.763 Y105.559 E2.81660
G1 X52.479 Y105.122 E2.83109
G1 X52.255 Y104.628 E2.84616
G1 X52.091 Y104.068 E2.86237
G1 X51.989 Y103.440 E2.88006
G1 X51.954 Y102.736 E2.89961
G1 X51.973 Y102.266 E2.91268
G1 X52.030 Y101.834 E2.92479
G1 X52.179 Y101.273 E2.94091
G1 X52.334 Y100.906 E2.95198
G1 X52.514 Y100.580 E2.96233
G1 X52.715 Y100.286 E2.97221
G1 X52.934 Y100.029 E2.98158
G1 X53.178 Y99.802 E2.99084
G1 X53.461 Y99.593 E3.00062
G1 X53.755 Y99.418 E3.01013
G1 X55.300 Y98.758 E3.05678
G1 X55.985 Y98.715 E3.07585
G1 X57.391 Y98.723 E3.11491
G1 X58.190 Y98.796 E3.13720
G1 X58.902 Y98.940 E3.15739
G1 X59.196 Y99.028 E3.16590
G1 X59.810 Y99.283 E3.18437
G1 E1.18437 F2400.00000
G92 E0
G1 X63.817 Y106.276 F7800.000
G1 E2.00000 F2400.00000
G1 F1800
G1 X64.032 Y106.351 E2.00632
G1 X64.222 Y106.485 E2.01279
G1 X64.292 Y106.600 E2.01651
G1 X64.360 Y106.888 E2.02475
G1 X64.359 Y107.111 E2.03094
G1 X64.313 Y107.293 E2.03616
G1 X64.149 Y107.508 E2.04365
G1 X63.998 Y107.609 E2.04871
G1 X63.672 Y107.739 E2.05845
G1 X63.392 Y107.793 E2.06637
G1 X63.026 Y107.802 E2.07654
G1 X62.661 Y107.753 E2.08678
G1 X62.334 Y107.646 E2.09633
G1 X62.024 Y107.501 E2.10584
G1 X61.751 Y107.332 E2.11476
G1 X61.864 Y107.361 E2.11802
G1 X62.354 Y107.365 E2.13162
G1 X62.815 Y107.242 E2.14488
G1 X63.126 Y107.073 E2.15470
G1 X63.431 Y106.842 E2.16534
G1 X63.699 Y106.476 E2.17794
G1 X63.777 Y106.334 E2.18243
G1 E0.18243 F2400.00000
G92 E0
G1 X60.808 Y106.357 F7800.000
G1 E2.00000 F2400.00000
G1 F1800
G1 X61.265 Y106.626 E2.01247
G1 X61.530 Y106.741 E2.01927
G1 X61.931 Y106.844 E2.02901
G1 X62.288 Y106.846 E2.03739
G1 X62.622 Y106.757 E2.04553
G1 X62.844 Y106.637 E2.05147
G1 X63.058 Y106.475 E2.05777
G1 X63.261 Y106.197 E2.06587
G1 X63.356 Y106.026 E2.07047
G1 X63.415 Y105.820 E2.07551
G1 X63.427 Y105.704 E2.07824
G1 X63.942 Y105.771 E2.09045
G1 X64.257 Y105.881 E2.09829
G1 X64.493 Y106.027 E2.10483
G1 X64.610 Y106.140 E2.10864
G1 X64.705 Y106.265 E2.11233
G1 X64.824 Y106.563 E2.11988
G1 X64.875 Y106.825 E2.12616
G1 X64.874 Y107.176 E2.13443
G1 X64.840 Y107.348 E2.13855
G1 X64.788 Y107.507 E2.14247
G1 X64.600 Y107.787 E2.15040
G1 X64.483 Y107.908 E2.15436
G1 X64.241 Y108.070 E2.16121
G1 X63.818 Y108.238 E2.17190
G1 X63.448 Y108.310 E2.18077
G1 X62.998 Y108.321 E2.19136
G1 X62.545 Y108.260 E2.20210
G1 X62.143 Y108.129 E2.21204
G1 X61.778 Y107.958 E2.22153
G1 X61.449 Y107.755 E2.23060
G1 X61.061 Y107.429 E2.24254
G1 X60.312 Y106.683 E2.26738
G1 X59.709 Y106.996 E2.28335
G1 X58.986 Y107.276 E2.30158
G1 X58.164 Y107.493 E2.32157
G1 X57.574 Y107.577 E2.33557
G1 X56.959 Y107.605 E2.35005
G1 X56.033 Y107.568 E2.37184
G1 X55.197 Y107.458 E2.39166
G1 X54.452 Y107.277 E2.40971
G1 X53.797 Y107.026 E2.42619
G1 X53.232 Y106.708 E2.44145
G1 X52.750 Y106.320 E2.45600
G1 X52.351 Y105.875 E2.47004
G1 X52.024 Y105.372 E2.48417
G1 X51.768 Y104.809 E2.49869
G1 X51.585 Y104.183 E2.51403
G1 X51.473 Y103.494 E2.53045
G1 X51.435 Y102.739 E2.54823
G1 X51.456 Y102.222 E2.56040
G1 X51.520 Y101.741 E2.57181
G1 X51.625 Y101.296 E2.58255
G1 X51.868 Y100.680 E2.59812
G1 X52.073 Y100.308 E2.60810
G1 X52.303 Y99.971 E2.61770
G1 X52.559 Y99.671 E2.62699
G1 X52.847 Y99.403 E2.63623
G1 X53.174 Y99.161 E2.64580
G1 X53.520 Y98.956 E2.65525
G1 X54.566 Y98.509 E2.68201
G1 X53.140 Y97.596 E2.72182
G1 X52.746 Y97.283 E2.73365
G1 X52.403 Y96.953 E2.74484
G1 X52.227 Y96.736 E2.75141
G1 X52.009 Y96.386 E2.76111
G1 X51.864 Y96.036 E2.77003
G1 X51.814 Y95.804 E2.77559
G1 X51.801 Y95.390 E2.78533
G1 X51.835 Y95.126 E2.79160
G1 X51.905 Y94.882 E2.79756
G1 X52.004 Y94.651 E2.80347
G1 X52.123 Y94.441 E2.80916
G1 X52.361 Y94.148 E2.81803
G1 X52.632 Y93.896 E2.82673
G1 X53.061 Y93.605 E2.83893
G1 X53.710 Y93.272 E2.85607
G1 X53.631 Y92.793 E2.86747
G1 X52.997 Y92.724 E2.88247
G1 X52.484 Y92.628 E2.89474
G1 X52.022 Y92.499 E2.90602
G1 X51.610 Y92.338 E2.91641
G1 X51.248 Y92.147 E2.92605
G1 X50.936 Y91.928 E2.93501
G1 X50.675 Y91.672 E2.94360
G1 X50.461 Y91.385 E2.95203
G1 X50.294 Y91.063 E2.96056
G1 X50.174 Y90.702 E2.96949
G1 X50.101 Y90.301 E2.97908
G1 X50.076 Y89.862 E2.98942
G1 X50.117 Y89.294 E3.00281
G1 X50.240 Y88.784 E3.01515
G1 X50.441 Y88.324 E3.02696
G1 X50.724 Y87.912 E3.03871
G1 X51.090 Y87.542 E3.05096
G1 X51.545 Y87.214 E3.06414
G1 X52.093 Y86.926 E3.07869
G1 X52.735 Y86.687 E3.09480
G1 X53.476 Y86.500 E3.11277
G1 X54.314 Y86.364 E3.13274
G1 X55.249 Y86.283 E3.15480
G1 X56.291 Y86.255 E3.17932
G1 X57.583 Y86.297 E3.20971
G1 X58.758 Y86.422 E3.23750
G1 X59.290 Y86.514 E3.25020
G1 X59.790 Y86.626 E3.26224
G1 X60.726 Y86.909 E3.28523
G1 X61.141 Y87.073 E3.29574
G1 X61.532 Y87.254 E3.30585
G1 X61.891 Y87.452 E3.31551
G1 X62.222 Y87.665 E3.32477
G1 X62.524 Y87.895 E3.33368
G1 X62.798 Y88.138 E3.34228
G1 X63.042 Y88.396 E3.35064
G1 X63.259 Y88.669 E3.35884
G1 X63.450 Y88.956 E3.36695
G1 X63.613 Y89.261 E3.37507
G1 X63.757 Y89.588 E3.38347
G1 X63.874 Y89.928 E3.39195
G1 X63.966 Y90.283 E3.40057
G1 X64.031 Y90.654 E3.40942
G1 X64.071 Y91.040 E3.41854
G1 X64.085 Y91.437 E3.42788
G1 X64.050 Y92.048 E3.44227
G1 X63.950 Y92.604 E3.45555
G1 X63.878 Y92.849 E3.46156
G1 X63.678 Y93.334 E3.47391
G1 X63.412 Y93.772 E3.48595
G1 X63.079 Y94.155 E3.49789
G1 X62.673 Y94.487 E3.51022
G1 X62.190 Y94.774 E3.52343
G1 X61.630 Y95.014 E3.53775
G1 X60.993 Y95.204 E3.55340
G1 X60.270 Y95.332 E3.57065
G1 X59.458 Y95.397 E3.58981
G1 X55.627 Y95.405 E3.67990
G1 X55.067 Y95.458 E3.69311
G1 X54.876 Y95.508 E3.69776
G1 X54.553 Y95.643 E3.70599
G1 X54.281 Y95.879 E3.71445
G1 X54.115 Y96.194 E3.72283
G1 X54.064 Y96.550 E3.73129
G1 X54.078 Y96.762 E3.73628
G1 X54.148 Y97.034 E3.74288
G1 X54.254 Y97.285 E3.74930
G1 X54.388 Y97.516 E3.75558
G1 X54.508 Y97.662 E3.76002
G1 X54.701 Y97.840 E3.76619
G1 X55.282 Y98.240 E3.78279
G1 X55.970 Y98.197 E3.79899
G1 X57.416 Y98.205 E3.83299
G1 X58.265 Y98.283 E3.85305
G1 X59.029 Y98.437 E3.87137
G1 X59.368 Y98.540 E3.87971
G1 X60.007 Y98.799 E3.89591
G1 X60.564 Y99.116 E3.91099
G1 X61.028 Y99.478 E3.92482
G1 X61.418 Y99.913 E3.93855
G1 X61.736 Y100.393 E3.95210
G1 X61.985 Y100.924 E3.96589
G1 X62.160 Y101.485 E3.97971
G1 X62.268 Y102.096 E3.99430
G1 X62.305 Y102.743 E4.00953
G1 X62.293 Y103.063 E4.01706
G1 X62.255 Y103.380 E4.02457
G1 X62.156 Y103.856 E4.03600
G1 X62.077 Y104.155 E4.04328
G1 X61.925 Y104.596 E4.05426
G1 X61.725 Y105.020 E4.06526
G1 X61.505 Y105.418 E4.07596
G1 X61.267 Y105.779 E4.08613
G1 X60.855 Y106.298 E4.10172
G1 X60.539 Y106.778 F7800.000
G1 E2.10172 F2400.00000
G92 E0
G1 X43.115 Y100.256 F7800.000
G1 E2.00000 F2400.00000
G1 F1800
G1 X41.299 Y100.248 E2.04271
G1 X40.777 Y100.191 E2.05505
G1 X40.310 Y100.075 E2.06637
G1 X39.899 Y99.913 E2.07675
G1 X39.700 Y99.810 E2.08202
G1 X39.359 Y99.581 E2.09168
G1 X39.075 Y99.304 E2.10102
G1 X38.945 Y99.138 E2.10596
G1 X38.743 Y98.804 E2.11515
G1 X38.592 Y98.432 E2.12459
G1 X38.532 Y98.224 E2.12968
G1 X38.450 Y97.791 E2.14005
G1 X38.401 Y97.316 E2.15126
G1 X38.385 Y96.801 E2.16339
G1 X38.395 Y96.397 E2.17289
G1 X38.479 Y95.700 E2.18938
G1 X38.556 Y95.387 E2.19697
G1 X38.657 Y95.108 E2.20395
G1 X38.786 Y94.853 E2.21066
G1 X38.955 Y94.631 E2.21722
G1 X39.155 Y94.447 E2.22361
G1 X39.386 Y94.303 E2.23002
G1 X39.643 Y94.203 E2.23651
G1 X39.921 Y94.144 E2.24320
G1 X40.216 Y94.125 E2.25014
G1 X40.646 Y94.154 E2.26028
G1 X41.048 Y94.243 E2.26996
G1 X41.422 Y94.392 E2.27941
G1 X41.609 Y94.503 E2.28454
G1 X41.927 Y94.743 E2.29389
G1 X42.212 Y95.032 E2.30344
G1 X42.460 Y95.363 E2.31316
G1 X42.669 Y95.737 E2.32323
G1 X42.836 Y96.157 E2.33387
G1 X42.970 Y96.617 E2.34514
G1 X43.092 Y97.356 E2.36274
G1 X43.115 Y97.894 E2.37542
G1 X43.115 Y100.181 E2.42920
G1 X43.115 Y100.756 F7800.000
G1 E0.42920 F2400.00000
G92 E0
G1 X38.105 Y99.815 F7800.000
G1 E2.00000 F2400.00000
G1 F1800
G1 X37.547 Y99.653 E2.01612
G1 X37.057 Y99.445 E2.03092
G1 X36.670 Y99.215 E2.04343
G1 X36.376 Y98.965 E2.05414
G1 X36.144 Y98.686 E2.06422
G1 X35.961 Y98.360 E2.07461
G1 X35.821 Y97.970 E2.08613
G1 X35.729 Y97.498 E2.09948
G1 X35.695 Y96.916 E2.11567
G1 X35.701 Y96.646 E2.12317
G1 X35.759 Y96.070 E2.13926
G1 X35.868 Y95.580 E2.15318
G1 X35.919 Y95.425 E2.15774
G1 X36.098 Y95.047 E2.16935
G1 X36.300 Y94.742 E2.17952
G1 X36.544 Y94.475 E2.18955
G1 X36.829 Y94.231 E2.19996
G1 X37.239 Y94.010 E2.21290
G1 X37.600 Y93.891 E2.22348
G1 X38.014 Y93.805 E2.23523
G1 X38.288 Y93.778 E2.24287
G1 X38.154 Y93.902 E2.24796
G1 X37.868 Y94.279 E2.26108
G1 X37.664 Y94.680 E2.27357
G1 X37.522 Y95.074 E2.28522
G1 X37.416 Y95.506 E2.29758
G1 X37.318 Y96.318 E2.32031
G1 X37.305 Y96.804 E2.33380
G1 X37.324 Y97.388 E2.35004
G1 X37.381 Y97.947 E2.36563
G1 X37.481 Y98.473 E2.38053
G1 X37.571 Y98.785 E2.38953
G1 X37.776 Y99.289 E2.40465
G1 X38.058 Y99.756 E2.41980
G1 E0.41980 F2400.00000
G92 E0
G1 X40.355 Y100.620 F7800.000
G1 E2.00000 F2400.00000
G1 F1800
G1 X39.615 Y100.597 E2.02057
G1 X38.765 Y100.512 E2.04429
G1 X38.013 Y100.373 E2.06552
G1 X37.359 Y100.183 E2.08446
G1 X36.802 Y99.947 E2.10124
G1 X36.343 Y99.673 E2.11612
G1 X35.975 Y99.361 E2.12950
G1 X35.680 Y99.005 E2.14234
G1 X35.449 Y98.594 E2.15544
G1 X35.278 Y98.119 E2.16948
G1 X35.171 Y97.568 E2.18506
G1 X35.134 Y96.926 E2.20292
G1 X35.141 Y96.611 E2.21167
G1 X35.204 Y95.981 E2.22927
G1 X35.326 Y95.431 E2.24490
G1 X35.397 Y95.215 E2.25122
G1 X35.608 Y94.771 E2.26489
G1 X35.856 Y94.396 E2.27738
G1 X36.153 Y94.071 E2.28959
G1 X36.490 Y93.783 E2.30191
G1 X36.634 Y93.687 E2.30674
G1 X37.023 Y93.491 E2.31883
G1 X37.455 Y93.348 E2.33146
G1 X37.930 Y93.250 E2.34492
G1 X38.439 Y93.200 E2.35914
G1 X38.924 Y93.196 E2.37262
G1 X39.558 Y93.241 E2.39028
G1 X39.881 Y93.294 E2.39937
G1 X40.336 Y93.431 E2.41255
G1 X40.716 Y93.598 E2.42409
G1 X40.808 Y93.659 E2.42717
G1 X40.217 Y93.606 E2.44366
G1 X39.851 Y93.629 E2.45385
G1 X39.494 Y93.705 E2.46397
G1 X39.153 Y93.838 E2.47415
G1 X38.840 Y94.033 E2.48439
G1 X38.570 Y94.281 E2.49457
G1 X38.345 Y94.577 E2.50491
G1 X38.181 Y94.902 E2.51502
G1 X38.060 Y95.237 E2.52490
G1 X37.969 Y95.607 E2.53549
G1 X37.878 Y96.359 E2.55654
G1 X37.867 Y96.802 E2.56885
G1 X37.884 Y97.351 E2.58409
G1 X37.937 Y97.866 E2.59846
G1 X38.028 Y98.344 E2.61198
G1 X38.101 Y98.602 E2.61944
G1 X38.279 Y99.037 E2.63249
G1 X38.518 Y99.433 E2.64533
G1 X38.688 Y99.650 E2.65301
G1 X39.031 Y99.985 E2.66632
G1 X39.436 Y100.257 E2.67988
G1 X39.685 Y100.385 E2.68764
G1 X40.151 Y100.570 E2.70158
G1 X40.282 Y100.602 E2.70532
G1 E0.70532 F2400.00000
G92 E0
G1 X43.557 Y106.294 F7800.000
G1 E2.00000 F2400.00000
G1 F1800
G1 X43.872 Y105.615 E2.02080
G1 X44.014 Y105.113 E2.03530
G1 X44.126 Y104.418 E2.05485
G1 X44.179 Y103.704 E2.07471
G1 X44.203 Y100.066 E2.17578
G1 X44.194 Y97.871 E2.23675
G1 X44.167 Y97.244 E2.25419
G1 X44.024 Y96.378 E2.27857
G1 X43.889 Y95.914 E2.29199
G1 X44.082 Y95.914 E2.29735
G1 X44.662 Y94.014 E2.35253
G1 X46.120 Y94.014 E2.39303
G1 X45.871 Y94.615 E2.41110
G1 X45.779 Y95.050 E2.42344
G1 X45.729 Y95.463 E2.43501
G1 X45.706 Y96.073 E2.45198
G1 X45.695 Y103.528 E2.65905
G1 X45.626 Y104.169 E2.67696
G1 X45.514 Y104.626 E2.69002
G1 X45.327 Y105.085 E2.70380
G1 X45.138 Y105.392 E2.71382
G1 X45.028 Y105.527 E2.71865
G1 X44.781 Y105.759 E2.72807
G1 X44.459 Y105.958 E2.73858
G1 X43.994 Y106.163 E2.75270
G1 X43.628 Y106.272 E2.76329
G1 E0.76329 F2400.00000
G92 E0
G1 X38.654 Y106.291 F7800.000
G1 E2.00000 F2400.00000
G1 F1800
G1 X38.386 Y106.229 E2.00762
G1 X37.928 Y106.081 E2.02100
G1 X37.534 Y105.908 E2.03295
G1 X37.177 Y105.667 E2.04492
G1 X36.987 Y105.474 E2.05244
G1 X36.894 Y105.314 E2.05760
G1 X36.857 Y105.079 E2.06420
G1 X36.875 Y104.936 E2.06821
G1 X37.007 Y104.853 E2.07253
G1 X37.194 Y104.782 E2.07810
G1 X37.470 Y104.709 E2.08602
G1 X38.002 Y104.623 E2.10099
G1 X38.181 Y105.328 E2.12121
G1 X38.369 Y105.796 E2.13523
G1 X38.616 Y106.226 E2.14898
G1 E0.14898 F2400.00000
G92 E0
G1 X43.667 Y95.353 F7800.000
G1 E2.00000 F2400.00000
G1 F1800
G1 X44.247 Y93.453 E2.05518
G1 X47.763 Y93.453 E2.15285
G1 X47.549 Y93.512 E2.15902
G1 X47.220 Y93.672 E2.16918
G1 X46.922 Y93.902 E2.17964
G1 X46.609 Y94.300 E2.19370
G1 X46.410 Y94.782 E2.20819
G1 X46.333 Y95.142 E2.21841
G1 X46.289 Y95.507 E2.22864
G1 X46.267 Y96.084 E2.24468
G1 X46.256 Y103.559 E2.45230
G1 X46.181 Y104.256 E2.47180
G1 X46.121 Y104.546 E2.48002
G1 X46.045 Y104.809 E2.48762
G1 X45.834 Y105.328 E2.50318
G1 X45.723 Y105.528 E2.50952
G1 X45.589 Y105.727 E2.51619
G1 X45.288 Y106.064 E2.52874
G1 X45.120 Y106.207 E2.53487
G1 X44.712 Y106.460 E2.54821
G1 X44.188 Y106.690 E2.56411
G1 X43.585 Y106.871 E2.58160
G1 X43.266 Y106.938 E2.59066
G1 X42.508 Y107.046 E2.61191
G1 X41.670 Y107.100 E2.63524
G1 X40.848 Y107.103 E2.65806
G1 X40.133 Y107.069 E2.67797
G1 X39.451 Y107.002 E2.69700
G1 X38.811 Y106.903 E2.71497
G1 X38.237 Y106.770 E2.73135
G1 X37.729 Y106.606 E2.74618
G1 X37.283 Y106.411 E2.75969
G1 X37.125 Y106.322 E2.76473
G1 X36.810 Y106.094 E2.77553
G1 X36.562 Y105.841 E2.78538
G1 X36.415 Y105.621 E2.79272
G1 X36.326 Y105.369 E2.80016
G1 X36.295 Y105.071 E2.80847
G1 X36.311 Y104.873 E2.81399
G1 X36.348 Y104.733 E2.81801
G1 X36.402 Y104.627 E2.82134
G1 X36.480 Y104.533 E2.82471
G1 X36.596 Y104.438 E2.82887
G1 X36.772 Y104.342 E2.83444
G1 X37.022 Y104.248 E2.84187
G1 X37.346 Y104.161 E2.85118
G1 X37.733 Y104.090 E2.86212
G1 X38.503 Y104.017 E2.88361
G1 X38.557 Y104.540 E2.89824
G1 X38.715 Y105.153 E2.91581
G1 X38.875 Y105.551 E2.92771
G1 X39.166 Y106.057 E2.94393
G1 X39.447 Y106.366 E2.95553
G1 X39.636 Y106.525 E2.96239
G1 X39.990 Y106.746 E2.97398
G1 X40.417 Y106.909 E2.98667
G1 X40.864 Y106.983 E2.99927
G1 X41.135 Y106.994 E3.00680
G1 X41.603 Y106.958 E3.01984
G1 X42.061 Y106.836 E3.03300
G1 X42.463 Y106.623 E3.04564
G1 X42.809 Y106.337 E3.05810
G1 X43.094 Y105.975 E3.07091
G1 X43.344 Y105.422 E3.08777
G1 X43.466 Y104.991 E3.10019
G1 X43.568 Y104.352 E3.11817
G1 X43.618 Y103.682 E3.13685
G1 X43.638 Y100.627 E3.22170
G1 X43.633 Y97.883 E3.29792
G1 X43.608 Y97.302 E3.31408
G1 X43.476 Y96.502 E3.33660
G1 X43.327 Y95.988 E3.35146
G1 X43.137 Y95.513 E3.36567
G1 X43.048 Y95.353 E3.37077
G1 X43.592 Y95.353 E3.38588
G1 X43.284 Y94.835 F7800.000
G1 F1800
G1 X43.864 Y92.935 E3.43260
G1 X48.545 Y92.935 E3.54268
G1 X48.545 Y93.871 E3.56469
G1 X47.997 Y93.926 E3.57764
G1 X47.733 Y93.999 E3.58408
G1 X47.494 Y94.115 E3.59032
G1 X47.289 Y94.273 E3.59641
G1 X47.060 Y94.564 E3.60511
G1 X46.906 Y94.936 E3.61459
G1 X46.844 Y95.227 E3.62158
G1 X46.806 Y95.548 E3.62919
G1 X46.785 Y96.095 E3.64205
G1 X46.774 Y103.587 E3.81822
G1 X46.693 Y104.337 E3.83596
G1 X46.624 Y104.670 E3.84396
G1 X46.536 Y104.979 E3.85151
G1 X46.302 Y105.552 E3.86607
G1 X46.165 Y105.798 E3.87269
G1 X45.834 Y106.246 E3.88578
G1 X45.642 Y106.443 E3.89225
G1 X45.434 Y106.620 E3.89869
G1 X45.199 Y106.778 E3.90534
G1 X44.945 Y106.923 E3.91221
G1 X44.367 Y107.177 E3.92706
G1 X43.712 Y107.373 E3.94313
G1 X43.355 Y107.448 E3.95171
G1 X42.562 Y107.561 E3.97056
G1 X41.688 Y107.618 E3.99115
G1 X40.837 Y107.621 E4.01115
G1 X40.095 Y107.586 E4.02862
G1 X39.386 Y107.516 E4.04538
G1 X38.713 Y107.412 E4.06138
G1 X38.098 Y107.270 E4.07622
G1 X37.545 Y107.091 E4.08990
G1 X37.052 Y106.875 E4.10256
G1 X36.846 Y106.759 E4.10811
G1 X36.471 Y106.489 E4.11898
G1 X36.169 Y106.180 E4.12914
G1 X36.048 Y106.021 E4.13382
G1 X35.951 Y105.853 E4.13840
G1 X35.820 Y105.482 E4.14765
G1 X35.776 Y105.064 E4.15754
G1 X35.798 Y104.784 E4.16413
G1 X35.862 Y104.546 E4.16993
G1 X35.966 Y104.341 E4.17533
G1 X36.113 Y104.163 E4.18075
G1 X36.307 Y104.006 E4.18662
G1 X36.555 Y103.870 E4.19328
G1 X36.863 Y103.754 E4.20102
G1 X37.232 Y103.655 E4.20999
G1 X37.656 Y103.577 E4.22014
G1 X38.136 Y103.521 E4.23149
G1 X38.994 Y103.481 E4.25169
G1 X39.005 Y103.839 E4.26012
G1 X39.069 Y104.449 E4.27454
G1 X39.208 Y104.991 E4.28771
G1 X39.342 Y105.324 E4.29614
G1 X39.587 Y105.750 E4.30770
G1 X39.807 Y105.992 E4.31538
G1 X39.942 Y106.105 E4.31952
G1 X40.222 Y106.280 E4.32729
G1 X40.553 Y106.407 E4.33562
G1 X40.917 Y106.467 E4.34430
G1 X41.125 Y106.475 E4.34920
G1 X41.515 Y106.445 E4.35841
G1 X41.870 Y106.351 E4.36704
G1 X42.173 Y106.190 E4.37511
G1 X42.436 Y105.973 E4.38311
G1 X42.648 Y105.704 E4.39117
G1 X42.856 Y105.244 E4.40305
G1 X42.959 Y104.879 E4.41195
G1 X43.053 Y104.292 E4.42594
G1 X43.100 Y103.661 E4.44082
G1 X43.117 Y101.145 E4.49998
G1 X40.564 Y101.145 E4.56000
G1 X39.581 Y101.114 E4.58314
G1 X38.692 Y101.026 E4.60415
G1 X37.894 Y100.877 E4.62324
G1 X37.185 Y100.671 E4.64058
G1 X36.568 Y100.410 E4.65635
G1 X36.040 Y100.095 E4.67079
G1 X35.605 Y99.727 E4.68420
G1 X35.252 Y99.300 E4.69724
G1 X34.976 Y98.810 E4.71045
G1 X34.777 Y98.256 E4.72429
G1 X34.656 Y97.633 E4.73922
G1 X34.615 Y96.935 E4.75565
G1 X34.624 Y96.579 E4.76403
G1 X34.692 Y95.899 E4.78011
G1 X34.826 Y95.294 E4.79468
G1 X34.916 Y95.022 E4.80140
G1 X35.156 Y94.515 E4.81459
G1 X35.447 Y94.077 E4.82697
G1 X35.792 Y93.698 E4.83901
G1 X36.177 Y93.369 E4.85093
G1 X36.374 Y93.238 E4.85648
G1 X36.825 Y93.011 E4.86835
G1 X37.321 Y92.847 E4.88065
G1 X37.852 Y92.737 E4.89338
G1 X38.412 Y92.682 E4.90662
G1 X38.941 Y92.678 E4.91906
G1 X39.619 Y92.726 E4.93505
G1 X39.998 Y92.789 E4.94408
G1 X40.515 Y92.944 E4.95677
G1 X40.967 Y93.142 E4.96838
G1 X41.234 Y93.321 E4.97593
G1 X41.637 Y93.665 E4.98840
G1 X42.035 Y94.072 E5.00178
G1 X42.717 Y94.835 E5.02584
G1 X43.209 Y94.835 E5.03740
G1 X43.748 Y95.021 F7800.000
G1 E3.03740 F2400.00000
G92 E0
G1 X45.296 Y94.357 F7800.000
G1 E2.00000 F2400.00000
G1 F1800
G1 X44.859 Y94.793 E2.01821
G1 X44.489 Y96.006 E2.05559
G1 X45.400 Y95.095 E2.09360
G1 X45.363 Y95.974 E2.11956
G1 X44.426 Y96.911 E2.15863
G1 X44.508 Y97.404 E2.17337
G1 X44.519 Y97.661 E2.18095
G1 X45.362 Y96.818 E2.21610
G1 X45.361 Y97.661 E2.24098
G1 X44.538 Y98.484 E2.27528
G1 X44.542 Y99.322 E2.30001
G1 X45.359 Y98.505 E2.33411
G1 X45.358 Y99.348 E2.35899
G1 X44.545 Y100.161 E2.39289
G1 X44.541 Y101.008 E2.41786
G1 X45.357 Y100.192 E2.45189
G1 X45.356 Y101.036 E2.47677
G1 X44.535 Y101.856 E2.51098
G1 X44.530 Y102.704 E2.53599
G1 X45.354 Y101.879 E2.57040
G1 X45.353 Y102.723 E2.59528
G1 X44.524 Y103.552 E2.62986
G1 X44.521 Y103.945 E2.64146
G1 X44.485 Y104.433 E2.65588
G1 X45.318 Y103.601 E2.69060
G1 X45.290 Y103.854 E2.69812
G1 X45.198 Y104.234 E2.70966
G1 X45.043 Y104.612 E2.72170
G1 X44.835 Y104.925 E2.73279
G1 X44.396 Y105.365 E2.75111
G1 E0.75111 F2400.00000
G92 E0
G1 X36.755 Y98.954 F7800.000
G1 E2.00000 F2400.00000
G1 F1800
G1 X37.191 Y98.518 E2.02057
G1 X37.035 Y97.723 E2.04760
G1 X36.312 Y98.446 E2.08168
G1 X36.255 Y98.344 E2.08556
G1 X36.145 Y98.039 E2.09637
G1 X36.084 Y97.722 E2.10714
G1 X36.970 Y96.835 E2.14895
G1 X36.976 Y96.060 E2.17479
G1 X37.001 Y95.852 E2.18176
G1 X36.053 Y96.800 E2.22643
G1 X36.096 Y96.377 E2.24060
G1 X36.191 Y95.948 E2.25525
G1 X36.370 Y95.541 E2.27005
G1 X37.201 Y94.700 E2.30949
G1 E0.30949 F2400.00000
G92 E0
G1 X162.824 Y110.774 F7800.000
G1 E2.00000 F2400.00000
G1 F1800
G1 X169.221 Y110.774 E2.17770
G1 X169.825 Y110.720 E2.19456
G1 X170.330 Y110.562 E2.20924
G1 X170.778 Y110.311 E2.22352
G1 X170.826 Y110.266 E2.22533
G1 X170.826 Y111.126 E2.24921
G1 X162.856 Y111.126 E2.47061
G1 X162.830 Y110.849 E2.47835
G1 X162.673 Y110.213 F7800.000
G1 F1800
G1 X169.196 Y110.213 E2.65952
G1 X169.715 Y110.166 E2.67402
G1 X170.107 Y110.044 E2.68540
G1 X170.447 Y109.853 E2.69623
G1 X170.718 Y109.604 E2.70646
G1 X170.924 Y109.325 E2.71611
G1 X171.061 Y109.036 E2.72499
G1 X171.222 Y108.585 E2.73830
G1 X171.309 Y108.213 E2.74890
G1 X171.387 Y108.213 E2.75107
G1 X171.387 Y111.687 E2.84758
G1 X162.344 Y111.687 E3.09878
G1 X161.583 Y103.373 E3.33068
G1 X162.051 Y103.183 E3.34471
G1 X162.142 Y103.212 E3.34736
G1 X162.073 Y103.194 E3.34934
G1 X162.667 Y110.138 E3.54296
G1 E1.54296 F2400.00000
G92 E0
G1 X168.619 Y102.995 F7800.000
G1 E2.00000 F2400.00000
G1 F1800
G1 X168.857 Y102.783 E2.00885
G1 X169.300 Y102.249 E2.02810
G1 X169.657 Y101.637 E2.04779
G1 X169.920 Y100.974 E2.06760
G1 X170.100 Y100.269 E2.08782
G1 X170.202 Y99.525 E2.10868
G1 X170.235 Y98.742 E2.13044
G1 X170.199 Y97.829 E2.15583
G1 X170.088 Y96.983 E2.17953
G1 X169.892 Y96.206 E2.20180
G1 X169.618 Y95.508 E2.22262
G1 X169.266 Y94.876 E2.24272
G1 X168.843 Y94.347 E2.26153
G1 X168.661 Y94.171 E2.26857
G1 X169.077 Y94.340 E2.28105
G1 X169.384 Y94.493 E2.29059
G1 X169.968 Y94.859 E2.30970
G1 X170.224 Y95.057 E2.31872
G1 X170.682 Y95.509 E2.33658
G1 X170.890 Y95.767 E2.34579
G1 X171.085 Y96.053 E2.35541
G1 X171.261 Y96.353 E2.36507
G1 X171.409 Y96.667 E2.37472
G1 X171.532 Y97.009 E2.38481
G1 X171.631 Y97.389 E2.39571
G1 X171.705 Y97.807 E2.40749
G1 X171.750 Y98.264 E2.42026
G1 X171.765 Y98.761 E2.43408
G1 X171.754 Y99.159 E2.44515
G1 X171.718 Y99.534 E2.45561
G1 X171.662 Y99.884 E2.46544
G1 X171.584 Y100.208 E2.47470
G1 X171.487 Y100.509 E2.48349
G1 X171.368 Y100.796 E2.49212
G1 X171.235 Y101.062 E2.50040
G1 X170.922 Y101.535 E2.51613
G1 X170.542 Y101.947 E2.53170
G1 X170.073 Y102.321 E2.54836
G1 X169.532 Y102.639 E2.56580
G1 X169.230 Y102.779 E2.57505
G1 X168.691 Y102.972 E2.59096
G1 E0.59096 F2400.00000
G92 E0
G1 X162.723 Y103.372 F7800.000
G1 E2.00000 F2400.00000
G1 F1800
G1 X163.203 Y103.482 E2.01370
G1 X164.362 Y103.623 E2.04613
G1 X164.902 Y103.652 E2.06114
G1 X165.739 Y103.623 E2.08440
G1 X166.373 Y103.522 E2.10224
G1 X166.963 Y103.351 E2.11931
G1 X167.511 Y103.107 E2.13598
G1 X168.011 Y102.785 E2.15248
G1 X168.452 Y102.392 E2.16890
G1 X168.838 Y101.927 E2.18569
G1 X169.151 Y101.390 E2.20294
G1 X169.386 Y100.801 E2.22057
G1 X169.548 Y100.161 E2.23890
G1 X169.643 Y99.475 E2.25815
G1 X169.674 Y98.741 E2.27854
G1 X169.640 Y97.877 E2.30258
G1 X169.536 Y97.089 E2.32465
G1 X169.357 Y96.377 E2.34503
G1 X169.110 Y95.748 E2.36382
G1 X168.799 Y95.189 E2.38157
G1 X168.428 Y94.725 E2.39808
G1 X168.019 Y94.331 E2.41385
G1 X167.547 Y94.007 E2.42975
G1 X167.027 Y93.770 E2.44562
G1 X166.502 Y93.632 E2.46070
G1 X165.987 Y93.552 E2.47518
G1 X165.457 Y93.526 E2.48993
G1 X164.820 Y93.562 E2.50766
G1 X164.240 Y93.675 E2.52405
G1 X163.943 Y93.771 E2.53273
G1 X163.656 Y93.893 E2.54139
G1 X163.197 Y94.172 E2.55633
G1 X162.790 Y94.509 E2.57099
G1 X162.448 Y94.898 E2.58537
G1 X162.172 Y95.317 E2.59931
G1 X161.955 Y95.760 E2.61301
G1 X161.796 Y96.225 E2.62666
G1 X161.683 Y96.749 E2.64155
G1 X161.400 Y96.625 E2.65013
G1 X161.184 Y96.455 E2.65776
G1 X161.064 Y96.263 E2.66407
G1 X160.986 Y95.941 E2.67325
G1 X160.975 Y95.729 E2.67917
G1 X161.024 Y95.274 E2.69186
G1 X161.184 Y94.827 E2.70506
G1 X161.252 Y94.712 E2.70876
G1 X161.471 Y94.433 E2.71860
G1 X161.757 Y94.167 E2.72946
G1 X161.900 Y94.061 E2.73443
G1 X162.316 Y93.814 E2.74785
G1 X162.819 Y93.602 E2.76301
G1 X163.087 Y93.516 E2.77083
G1 X163.761 Y93.351 E2.79012
G1 X164.113 Y93.290 E2.80003
G1 X164.945 Y93.203 E2.82326
G1 X165.884 Y93.174 E2.84936
G1 X166.660 Y93.204 E2.87093
G1 X167.446 Y93.297 E2.89292
G1 X168.236 Y93.452 E2.91527
G1 X168.963 Y93.682 E2.93646
G1 X169.652 Y94.000 E2.95753
G1 X169.980 Y94.191 E2.96809
G1 X170.296 Y94.403 E2.97866
G1 X170.586 Y94.628 E2.98883
G1 X170.854 Y94.872 E2.99893
G1 X171.106 Y95.140 E3.00915
G1 X171.341 Y95.433 E3.01956
G1 X171.559 Y95.752 E3.03031
G1 X171.758 Y96.091 E3.04121
G1 X171.928 Y96.452 E3.05232
G1 X172.069 Y96.843 E3.06386
G1 X172.180 Y97.269 E3.07608
G1 X172.261 Y97.730 E3.08908
G1 X172.310 Y98.227 E3.10297
G1 X172.327 Y98.761 E3.11779
G1 X172.314 Y99.194 E3.12983
G1 X172.275 Y99.606 E3.14132
G1 X172.212 Y99.994 E3.15225
G1 X172.125 Y100.359 E3.16267
G1 X172.014 Y100.703 E3.17271
G1 X171.726 Y101.334 E3.19196
G1 X171.556 Y101.616 E3.20112
G1 X171.365 Y101.881 E3.21020
G1 X171.155 Y102.129 E3.21922
G1 X170.923 Y102.360 E3.22831
G1 X170.392 Y102.784 E3.24718
G1 X169.784 Y103.141 E3.26677
G1 X169.448 Y103.296 E3.27705
G1 X168.709 Y103.555 E3.29881
G1 X167.876 Y103.750 E3.32256
G1 X166.969 Y103.868 E3.34798
G1 X166.507 Y103.896 E3.36084
G1 X165.610 Y103.897 E3.38574
G1 X164.656 Y103.811 E3.41235
G1 X163.806 Y103.670 E3.43627
G1 X162.795 Y103.392 E3.46542
G1 X162.652 Y103.890 F7800.000
G1 F1800
G1 X163.149 Y109.695 E3.60241
G1 X169.172 Y109.695 E3.74405
G1 X169.614 Y109.655 E3.75447
G1 X169.900 Y109.566 E3.76153
G1 X170.140 Y109.431 E3.76801
G1 X170.331 Y109.257 E3.77407
G1 X170.477 Y109.058 E3.77988
G1 X170.581 Y108.837 E3.78562
G1 X170.724 Y108.438 E3.79559
G1 X170.898 Y107.695 E3.81353
G1 X171.905 Y107.695 E3.83721
G1 X171.905 Y112.205 E3.94326
G1 X161.871 Y112.205 E4.17920
G1 X161.032 Y103.038 E4.39565
G1 X162.031 Y102.632 E4.42099
G1 X162.567 Y102.805 E4.43424
G1 X163.293 Y102.971 E4.45174
G1 X164.407 Y103.107 E4.47814
G1 X164.907 Y103.133 E4.48990
G1 X165.689 Y103.106 E4.50832
G1 X166.260 Y103.016 E4.52190
G1 X166.785 Y102.864 E4.53475
G1 X167.264 Y102.650 E4.54710
G1 X167.697 Y102.372 E4.55919
G1 X168.078 Y102.031 E4.57121
G1 X168.412 Y101.629 E4.58350
G1 X168.684 Y101.163 E4.59619
G1 X168.892 Y100.640 E4.60942
G1 X169.039 Y100.062 E4.62346
G1 X169.126 Y99.429 E4.63848
G1 X169.155 Y98.740 E4.65468
G1 X169.123 Y97.921 E4.67397
G1 X169.027 Y97.186 E4.69139
G1 X168.862 Y96.536 E4.70716
G1 X168.640 Y95.969 E4.72147
G1 X168.367 Y95.479 E4.73466
G1 X168.044 Y95.075 E4.74684
G1 X167.691 Y94.733 E4.75839
G1 X167.292 Y94.460 E4.76977
G1 X166.853 Y94.260 E4.78111
G1 X166.396 Y94.139 E4.79221
G1 X165.935 Y94.068 E4.80319
G1 X165.459 Y94.045 E4.81439
G1 X164.884 Y94.078 E4.82793
G1 X164.369 Y94.177 E4.84026
G1 X164.125 Y94.256 E4.84631
G1 X163.894 Y94.355 E4.85221
G1 X163.498 Y94.595 E4.86310
G1 X163.152 Y94.882 E4.87366
G1 X162.861 Y95.213 E4.88402
G1 X162.623 Y95.574 E4.89420
G1 X162.434 Y95.958 E4.90426
G1 X162.295 Y96.365 E4.91438
G1 X162.200 Y96.792 E4.92466
G1 X162.138 Y97.354 E4.93796
G1 X161.817 Y97.316 E4.94556
G1 X161.564 Y97.256 E4.95167
G1 X161.337 Y97.174 E4.95735
G1 X161.134 Y97.070 E4.96271
G1 X160.952 Y96.945 E4.96790
G1 X160.801 Y96.806 E4.97273
G1 X160.680 Y96.648 E4.97740
G1 X160.584 Y96.463 E4.98229
G1 X160.514 Y96.249 E4.98759
G1 X160.471 Y96.001 E4.99353
G1 X160.456 Y95.723 E5.00006
G1 X160.486 Y95.324 E5.00947
G1 X160.522 Y95.144 E5.01379
G1 X160.644 Y94.765 E5.02315
G1 X160.824 Y94.419 E5.03231
G1 X161.088 Y94.082 E5.04240
G1 X161.425 Y93.769 E5.05322
G1 X161.613 Y93.629 E5.05871
G1 X162.082 Y93.350 E5.07155
G1 X162.639 Y93.116 E5.08577
G1 X162.946 Y93.018 E5.09334
G1 X163.655 Y92.843 E5.11051
G1 X164.042 Y92.777 E5.11973
G1 X164.910 Y92.686 E5.14025
G1 X165.886 Y92.655 E5.16323
G1 X166.700 Y92.687 E5.18239
G1 X167.526 Y92.785 E5.20194
G1 X168.356 Y92.948 E5.22182
G1 X168.758 Y93.061 E5.23165
G1 X169.150 Y93.199 E5.24141
G1 X169.530 Y93.360 E5.25111
G1 X169.898 Y93.544 E5.26080
G1 X170.255 Y93.752 E5.27051
G1 X170.599 Y93.983 E5.28026
G1 X170.919 Y94.231 E5.28977
G1 X171.218 Y94.503 E5.29928
G1 X171.497 Y94.800 E5.30887
G1 X171.757 Y95.124 E5.31863
G1 X171.997 Y95.474 E5.32861
G1 X172.217 Y95.849 E5.33881
G1 X172.408 Y96.254 E5.34936
G1 X172.564 Y96.690 E5.36025
G1 X172.686 Y97.159 E5.37163
G1 X172.774 Y97.659 E5.38359
G1 X172.827 Y98.194 E5.39622
G1 X172.845 Y98.760 E5.40954
G1 X172.831 Y99.226 E5.42050
G1 X172.789 Y99.672 E5.43103
G1 X172.720 Y100.096 E5.44113
G1 X172.624 Y100.499 E5.45087
G1 X172.501 Y100.882 E5.46034
G1 X172.350 Y101.246 E5.46959
G1 X172.180 Y101.584 E5.47850
G1 X171.988 Y101.901 E5.48722
G1 X171.773 Y102.200 E5.49588
G1 X171.536 Y102.480 E5.50451
G1 X171.274 Y102.741 E5.51318
G1 X170.988 Y102.985 E5.52203
G1 X170.686 Y103.210 E5.53090
G1 X170.362 Y103.416 E5.53991
G1 X170.017 Y103.604 E5.54917
G1 X169.649 Y103.773 E5.55868
G1 X169.258 Y103.923 E5.56853
G1 X168.847 Y104.055 E5.57868
G1 X167.969 Y104.260 E5.59988
G1 X167.018 Y104.384 E5.62243
G1 X166.523 Y104.414 E5.63410
G1 X165.587 Y104.415 E5.65610
G1 X164.590 Y104.325 E5.67963
G1 X163.695 Y104.177 E5.70097
G1 X162.725 Y103.910 E5.72463
G1 X162.152 Y103.882 F7800.000
G1 E3.72463 F2400.00000
G92 E0
G1 X170.190 Y101.483 F7800.000
G1 E2.00000 F2400.00000
G1 F1800
G1 X170.698 Y100.970 E2.02153
G1 X170.966 Y100.563 E2.03607
G1 X171.178 Y100.097 E2.05135
G1 X171.262 Y99.838 E2.05946
G1 X171.342 Y99.480 E2.07042
G1 X170.466 Y100.355 E2.10735
G1 X170.543 Y99.793 E2.12428
G1 X170.559 Y99.410 E2.13572
G1 X171.422 Y98.547 E2.17213
G1 X171.408 Y98.082 E2.18601
G1 X171.374 Y97.743 E2.19617
G1 X170.562 Y98.555 E2.23043
G1 X170.541 Y98.000 E2.24701
G1 X170.509 Y97.756 E2.25432
G1 X171.233 Y97.032 E2.28489
G1 X171.109 Y96.664 E2.29649
G1 X170.994 Y96.420 E2.30454
G1 X170.401 Y97.012 E2.32955
G1 X170.229 Y96.332 E2.35048
G1 X170.665 Y95.896 E2.36889
G1 E0.36889 F2400.00000
G92 E0
G1 X175.273 Y89.567 F7800.000
G1 E2.00000 F2400.00000
G1 F1800
G1 X175.273 Y89.513 E2.00150
G1 X186.707 Y89.513 E2.31912
G1 X186.707 Y89.567 E2.32062
G1 X175.348 Y89.567 E2.63615
G1 X174.755 Y90.085 F7800.000
G1 F1800
G1 X174.755 Y88.995 E2.66178
G1 X187.225 Y88.995 E2.95500
G1 X187.225 Y90.085 E2.98063
G1 X174.830 Y90.085 E3.27209
G1 X174.992 Y89.645 F7800.000
G1 Z0.650 F7800.000
G1 E1.27209 F2400.00000
G92 E0
G1 X146.602 Y96.070 F7800.000
G1 E2.00000 F2400.00000
G1 F3600
G1 X146.818 Y100.827 E2.12846
G1 X146.889 Y101.324 E2.14199
G1 X146.889 Y112.289 E2.43780
G1 X145.198 Y112.289 E2.48340
G1 X145.379 Y112.004 E2.49250
G1 X145.559 Y111.467 E2.50778
G1 X145.621 Y111.127 E2.51711
G1 X145.651 Y110.647 E2.53009
G1 X145.651 Y95.897 E2.92799
G1 X145.620 Y95.372 E2.94217
G1 X145.503 Y94.810 E2.95766
G1 X145.270 Y94.250 E2.97401
G1 X145.182 Y94.131 E2.97800
G1 X147.378 Y94.131 E3.03724
G1 X147.265 Y94.297 E3.04267
G1 X147.048 Y94.876 E3.05933
G1 X146.934 Y95.636 E3.08006
G1 X146.932 Y96.440 E3.10176
G1 X146.652 Y96.126 E3.11312
G1 X147.318 Y97.828 F7800.000
G1 F3600
G1 X147.452 Y100.768 E3.19250
G1 X147.524 Y101.279 E3.20642
G1 X147.524 Y112.924 E3.52058
G1 X143.468 Y112.924 E3.63002
G1 X143.620 Y112.873 E3.63435
G1 X144.079 Y112.612 E3.64860
G1 X144.486 Y112.224 E3.66378
G1 X144.801 Y111.729 E3.67960
G1 X144.941 Y111.308 E3.69155
G1 X144.989 Y111.049 E3.69867
G1 X145.016 Y110.626 E3.71009
G1 X145.016 Y95.915 E4.10694
G1 X144.989 Y95.456 E4.11935
G1 X144.893 Y94.999 E4.13196
G1 X144.713 Y94.566 E4.14461
G1 X144.371 Y94.102 E4.16016
G1 X143.947 Y93.740 E4.17518
G1 X143.447 Y93.496 E4.19019
G1 X149.143 Y93.496 E4.34382
G1 X148.792 Y93.639 E4.35403
G1 X148.456 Y93.857 E4.36485
G1 X148.078 Y94.233 E4.37922
G1 X147.833 Y94.592 E4.39096
G1 X147.667 Y95.036 E4.40375
G1 X147.570 Y95.684 E4.42141
G1 X147.565 Y98.104 E4.48671
G1 X147.368 Y97.884 E4.49467
G1 E2.49467 F2400.00000
G92 E0
G1 X153.944 Y105.682 F7800.000
G1 E2.00000 F2400.00000
G1 F900
G1 X154.364 Y106.069 E2.01541
G1 X153.871 Y106.069 E2.02872
G1 X153.930 Y105.755 E2.03732
G1 E0.03732 F2400.00000
G92 E0
G1 X151.085 Y101.098 F7800.000
G1 E2.00000 F2400.00000
G1 F900
G1 X150.410 Y100.341 E2.02737
G1 X153.198 Y95.876 E2.16937
G1 X153.524 Y95.383 E2.18531
G1 X153.648 Y95.216 E2.19091
G1 X154.017 Y94.803 E2.20585
G1 X154.253 Y94.615 E2.21400
G1 X154.495 Y94.475 E2.22153
G1 X154.916 Y94.320 E2.23365
G1 X155.353 Y94.236 E2.24564
G1 X155.897 Y94.201 E2.26035
G1 X155.766 Y94.326 E2.26525
G1 X155.178 Y95.052 E2.29045
G1 X151.127 Y101.036 E2.48537
G1 X151.346 Y101.846 F7800.000
G1 F3600
G1 X153.896 Y104.751 E2.58965
G1 X154.641 Y105.471 E2.61759
G1 X155.018 Y105.787 E2.63086
G1 X155.385 Y106.060 E2.64320
G1 X155.750 Y106.297 E2.65493
G1 X156.113 Y106.499 E2.66616
G1 X156.595 Y106.704 E2.68029
G1 X152.480 Y106.704 E2.79130
G1 X152.548 Y106.678 E2.79326
G1 X152.955 Y106.375 E2.80696
G1 X153.249 Y105.933 E2.82127
G1 X153.348 Y105.415 E2.83549
G1 X153.280 Y104.974 E2.84753
G1 X153.175 Y104.655 E2.85661
G1 X152.938 Y104.205 E2.87032
G1 X152.549 Y103.695 E2.88762
G1 X148.931 Y99.637 E3.03429
G1 X149.723 Y100.241 E3.06116
G1 X152.663 Y95.532 E3.21094
G1 X153.004 Y95.017 E3.22760
G1 X153.471 Y94.449 E3.24744
G1 X153.595 Y94.327 E3.25213
G1 X153.894 Y94.088 E3.26245
G1 X154.216 Y93.902 E3.27248
G1 X154.591 Y93.752 E3.28340
G1 X155.259 Y93.607 E3.30181
G1 X156.117 Y93.556 E3.32502
G1 X157.892 Y93.556 E3.37289
G1 X157.431 Y93.776 E3.38667
G1 X156.818 Y94.199 E3.40676
G1 X156.234 Y94.758 E3.42856
G1 X155.689 Y95.431 E3.45193
G1 X151.388 Y101.784 E3.65889
G1 X152.053 Y101.802 F7800.000
G1 F3000
G1 X154.303 Y104.364 E3.72916
G1 X155.016 Y105.055 E3.74963
G1 X155.365 Y105.347 E3.75902
G1 X155.705 Y105.600 E3.76774
G1 X156.038 Y105.816 E3.77593
G1 X156.365 Y105.997 E3.78363
G1 X156.699 Y106.147 E3.79117
G1 X157.037 Y106.264 E3.79855
G1 X157.381 Y106.348 E3.80584
G1 X157.805 Y106.402 E3.81466
G1 X157.805 Y107.265 E3.83245
G1 X151.355 Y107.265 E3.96538
G1 X151.355 Y106.401 E3.98319
G1 X151.533 Y106.392 E3.98687
G1 X151.929 Y106.317 E3.99517
G1 X152.274 Y106.183 E4.00280
G1 X152.542 Y105.983 E4.00970
G1 X152.720 Y105.717 E4.01629
G1 X152.779 Y105.405 E4.02283
G1 X152.733 Y105.106 E4.02907
G1 X152.657 Y104.875 E4.03408
G1 X152.464 Y104.508 E4.04264
G1 X152.116 Y104.052 E4.05445
G1 X147.950 Y99.379 E4.18347
G1 X148.011 Y100.716 E4.21104
G1 X148.085 Y101.239 E4.22195
G1 X148.085 Y113.485 E4.47433
G1 X142.155 Y113.485 E4.59655
G1 X142.155 Y112.569 E4.61544
G1 X142.534 Y112.559 E4.62326
G1 X143.018 Y112.485 E4.63334
G1 X143.389 Y112.359 E4.64143
G1 X143.742 Y112.158 E4.64980
G1 X144.050 Y111.865 E4.65856
G1 X144.291 Y111.486 E4.66782
G1 X144.397 Y111.169 E4.67472
G1 X144.431 Y110.981 E4.67865
G1 X144.455 Y110.609 E4.68633
G1 X144.455 Y95.932 E4.98883
G1 X144.431 Y95.531 E4.99711
G1 X144.355 Y95.165 E5.00481
G1 X144.221 Y94.844 E5.01199
G1 X143.958 Y94.486 E5.02113
G1 X143.634 Y94.210 E5.02991
G1 X143.285 Y94.032 E5.03798
G1 X142.913 Y93.929 E5.04593
G1 X142.425 Y93.872 E5.05606
G1 X142.155 Y93.869 E5.06163
G1 X142.155 Y92.935 E5.08087
G1 X150.445 Y92.935 E5.25173
G1 X150.445 Y93.868 E5.27097
G1 X150.155 Y93.872 E5.27694
G1 X149.672 Y93.929 E5.28697
G1 X149.413 Y93.990 E5.29245
G1 X149.053 Y94.138 E5.30047
G1 X148.809 Y94.296 E5.30645
G1 X148.512 Y94.593 E5.31512
G1 X148.334 Y94.852 E5.32161
G1 X148.212 Y95.178 E5.32876
G1 X148.130 Y95.726 E5.34020
G1 X148.125 Y98.316 E5.39357
G1 X149.573 Y99.422 E5.43113
G1 X152.191 Y95.229 E5.53302
G1 X152.545 Y94.694 E5.54623
G1 X152.715 Y94.467 E5.55207
G1 X153.061 Y94.065 E5.56300
G1 X153.223 Y93.906 E5.56768
G1 X153.577 Y93.624 E5.57702
G1 X153.970 Y93.397 E5.58636
G1 X154.409 Y93.220 E5.59613
G1 X154.639 Y93.155 E5.60105
G1 X155.176 Y93.052 E5.61231
G1 X155.460 Y93.021 E5.61821
G1 X156.106 Y92.995 E5.63152
G1 X158.745 Y92.995 E5.68592
G1 X158.745 Y93.884 E5.70424
G1 X158.502 Y93.931 E5.70934
G1 X158.235 Y94.013 E5.71511
G1 X157.713 Y94.262 E5.72703
G1 X157.174 Y94.635 E5.74054
G1 X156.647 Y95.138 E5.75555
G1 X156.140 Y95.765 E5.77217
G1 X152.095 Y101.740 E5.92087
G1 X151.706 Y102.161 F7800.000
G1 E3.92087 F2400.00000
G92 E0
G1 X137.647 Y94.131 F7800.000
G1 E2.00000 F2400.00000
G1 F900
G1 X137.514 Y94.377 E2.00754
G1 X137.362 Y94.902 E2.02230
G1 X137.282 Y95.586 E2.04085
G1 X137.269 Y102.510 E2.22765
G1 X137.237 Y103.305 E2.24912
G1 X137.150 Y103.965 E2.26707
G1 X137.014 Y104.518 E2.28243
G1 X136.839 Y104.971 E2.29554
G1 X136.636 Y105.346 E2.30703
G1 X136.409 Y105.650 E2.31727
G1 X136.019 Y105.970 E2.33087
G1 X135.534 Y106.211 E2.34550
G1 X135.389 Y106.260 E2.34961
G1 X134.903 Y106.371 E2.36305
G1 X134.265 Y106.422 E2.38033
G1 X134.788 Y105.981 E2.39880
G1 X135.172 Y105.492 E2.41558
G1 X135.541 Y104.774 E2.43734
G1 X135.726 Y104.206 E2.45348
G1 X135.850 Y103.637 E2.46917
G1 X135.932 Y103.036 E2.48554
G1 X135.988 Y102.119 E2.51032
G1 X135.991 Y94.131 E2.72581
G1 X137.572 Y94.131 E2.76845
G1 X139.226 Y93.496 F7800.000
G1 F900
G1 X138.969 Y93.606 E2.77601
G1 X138.645 Y93.827 E2.78657
G1 X138.365 Y94.140 E2.79790
G1 X138.105 Y94.619 E2.81262
G1 X137.987 Y95.028 E2.82410
G1 X137.917 Y95.631 E2.84048
G1 X137.904 Y96.089 E2.85282
G1 X137.904 Y102.523 E3.02640
G1 X137.871 Y103.360 E3.04898
G1 X137.776 Y104.083 E3.06867
G1 X137.621 Y104.709 E3.08606
G1 X137.418 Y105.238 E3.10136
G1 X137.173 Y105.690 E3.11522
G1 X136.889 Y106.069 E3.12799
G1 X136.760 Y106.196 E3.13287
G1 X136.382 Y106.493 E3.14583
G1 X136.217 Y106.594 E3.15105
G1 X135.770 Y106.803 E3.16437
G1 X135.561 Y106.872 E3.17031
G1 X135.016 Y106.997 E3.18538
G1 X134.748 Y107.033 E3.19269
G1 X133.950 Y107.062 E3.21422
G1 X133.181 Y107.012 E3.23501
G1 X132.852 Y106.970 E3.24397
G1 X132.571 Y106.908 E3.25173
G1 X132.141 Y106.743 E3.26416
G1 X131.749 Y106.517 E3.27637
G1 X131.372 Y106.205 E3.28956
G1 X131.664 Y106.297 E3.29784
G1 X131.996 Y106.345 E3.30688
G1 X132.538 Y106.349 E3.32150
G1 X133.042 Y106.277 E3.33524
G1 X133.517 Y106.120 E3.34874
G1 X133.951 Y105.870 E3.36225
G1 X134.324 Y105.542 E3.37564
G1 X134.635 Y105.147 E3.38919
G1 X134.952 Y104.529 E3.40793
G1 X135.112 Y104.039 E3.42184
G1 X135.223 Y103.526 E3.43600
G1 X135.299 Y102.973 E3.45105
G1 X135.353 Y102.100 E3.47466
G1 X135.355 Y93.496 E3.70677
G1 X139.151 Y93.496 E3.80917
G1 E1.80917 F2400.00000
G92 E0
G1 X128.743 Y94.238 F7800.000
G1 E2.00000 F2400.00000
G1 F900
G1 X128.565 Y94.693 E2.01317
G1 X128.454 Y95.199 E2.02715
G1 X128.409 Y95.894 E2.04592
G1 X128.422 Y101.849 E2.20658
G1 X128.503 Y102.790 E2.23206
G1 X128.667 Y103.713 E2.25736
G1 X128.781 Y104.069 E2.26743
G1 X128.530 Y104.069 E2.27420
G1 X128.170 Y106.069 E2.32902
G1 X126.706 Y106.069 E2.36852
G1 X126.944 Y105.546 E2.38401
G1 X127.078 Y105.010 E2.39891
G1 X127.131 Y104.295 E2.41826
G1 X127.131 Y96.002 E2.64197
G1 X127.104 Y95.485 E2.65595
G1 X127.015 Y94.985 E2.66965
G1 X126.911 Y94.640 E2.67936
G1 X126.668 Y94.131 E2.69457
G1 X128.806 Y94.131 E2.75226
G1 X128.781 Y94.174 E2.75358
G1 E0.75358 F2400.00000
G92 E0
G1 X129.061 Y104.704 F7800.000
G1 E2.00000 F2400.00000
G1 F900
G1 X128.701 Y106.704 E2.05482
G1 X124.968 Y106.704 E2.15554
G1 X125.233 Y106.618 E2.16306
G1 X125.594 Y106.423 E2.17413
G1 X125.893 Y106.140 E2.18524
G1 X126.120 Y105.821 E2.19582
G1 X126.341 Y105.336 E2.21020
G1 X126.448 Y104.908 E2.22208
G1 X126.496 Y104.271 E2.23932
G1 X126.496 Y96.018 E2.46195
G1 X126.472 Y95.557 E2.47440
G1 X126.396 Y95.133 E2.48603
G1 X126.317 Y94.870 E2.49343
G1 X126.068 Y94.352 E2.50894
G1 X125.688 Y93.896 E2.52495
G1 X125.195 Y93.583 E2.54071
G1 X124.938 Y93.496 E2.54804
G1 X130.482 Y93.496 E2.69761
G1 X130.111 Y93.645 E2.70840
G1 X129.771 Y93.888 E2.71967
G1 X129.509 Y94.190 E2.73045
G1 X129.316 Y94.517 E2.74069
G1 X129.175 Y94.878 E2.75114
G1 X129.085 Y95.288 E2.76247
G1 X129.044 Y95.914 E2.77938
G1 X129.057 Y101.821 E2.93874
G1 X129.134 Y102.707 E2.96273
G1 X129.285 Y103.560 E2.98610
G1 X129.533 Y104.330 E3.00792
G1 X129.711 Y104.704 E3.01911
G1 X129.136 Y104.704 E3.03462
G1 X129.530 Y105.265 F7800.000
G1 F3000
G1 X129.170 Y107.265 E3.07650
G1 X123.875 Y107.265 E3.18563
G1 X123.875 Y106.323 E3.20505
G1 X124.078 Y106.314 E3.20924
G1 X124.629 Y106.225 E3.22074
G1 X125.011 Y106.101 E3.22901
G1 X125.262 Y105.965 E3.23491
G1 X125.468 Y105.770 E3.24075
G1 X125.632 Y105.540 E3.24658
G1 X125.810 Y105.150 E3.25540
G1 X125.892 Y104.819 E3.26244
G1 X125.935 Y104.250 E3.27419
G1 X125.935 Y96.033 E3.44355
G1 X125.914 Y95.622 E3.45204
G1 X125.850 Y95.264 E3.45953
G1 X125.792 Y95.073 E3.46363
G1 X125.593 Y94.657 E3.47314
G1 X125.314 Y94.323 E3.48213
G1 X124.951 Y94.092 E3.49099
G1 X124.546 Y93.955 E3.49979
G1 X123.961 Y93.881 E3.51194
G1 X123.715 Y93.873 E3.51702
G1 X123.715 Y92.935 E3.53636
G1 X131.665 Y92.935 E3.70021
G1 X131.665 Y93.874 E3.71956
G1 X131.035 Y93.928 E3.73259
G1 X130.757 Y93.989 E3.73847
G1 X130.383 Y94.140 E3.74678
G1 X130.151 Y94.306 E3.75266
G1 X129.966 Y94.519 E3.75846
G1 X129.822 Y94.763 E3.76431
G1 X129.713 Y95.041 E3.77046
G1 X129.642 Y95.366 E3.77733
G1 X129.605 Y95.931 E3.78899
G1 X129.618 Y101.796 E3.90987
G1 X129.690 Y102.634 E3.92720
G1 X129.830 Y103.424 E3.94375
G1 X130.055 Y104.123 E3.95886
G1 X130.256 Y104.544 E3.96849
G1 X130.381 Y104.748 E3.97342
G1 X130.648 Y105.088 E3.98234
G1 X130.813 Y105.248 E3.98707
G1 X131.152 Y105.503 E3.99581
G1 X131.365 Y105.615 E4.00077
G1 X131.790 Y105.749 E4.00995
G1 X132.038 Y105.785 E4.01513
G1 X132.500 Y105.788 E4.02463
G1 X132.913 Y105.729 E4.03324
G1 X133.287 Y105.605 E4.04136
G1 X133.623 Y105.412 E4.04935
G1 X133.915 Y105.155 E4.05737
G1 X134.161 Y104.843 E4.06555
G1 X134.433 Y104.313 E4.07783
G1 X134.570 Y103.892 E4.08695
G1 X134.671 Y103.428 E4.09674
G1 X134.741 Y102.918 E4.10735
G1 X134.792 Y102.082 E4.12460
G1 X134.795 Y92.935 E4.31314
G1 X140.365 Y92.935 E4.42794
G1 X140.365 Y93.874 E4.44729
G1 X139.751 Y93.929 E4.45999
G1 X139.485 Y93.994 E4.46564
G1 X139.240 Y94.100 E4.47114
G1 X139.017 Y94.252 E4.47669
G1 X138.827 Y94.465 E4.48258
G1 X138.627 Y94.833 E4.49122
G1 X138.538 Y95.140 E4.49780
G1 X138.476 Y95.671 E4.50883
G1 X138.465 Y96.096 E4.51759
G1 X138.465 Y102.534 E4.65028
